(G-CODE GENERATED BY FLATCAM v8.994 - www.flatcam.org - Version Date: 2020/11/7)

(Name: Placa1.drl_mill_slot_cnc)
(Type: G-code from Geometry)
(Units: MM)

(Created on Saturday, 20 May 2023 at 12:37)

(This preprocessor is the default preprocessor used by FlatCAM.)
(It is made to work with MACH3 compatible motion controllers.)

(TOOL DIAMETER: 1.0 mm)
(Feedrate_XY: 80.0 mm/min)
(Feedrate_Z: 60.0 mm/min)
(Feedrate rapids 1500.0 mm/min)

(Z_Cut: -2.0 mm)
(DepthPerCut: 0.4 mm <=>5 passes)
(Z_Move: 2.0 mm)
(Z Start: None mm)
(Z End: 15.0 mm)
(X,Y End: None mm)
(Steps per circle: 64)
(Preprocessor Geometry: default)

(X range:   20.7599 ...   27.3601  mm)
(Y range:  -21.4701 ...  -17.4699  mm)

(Spindle Speed: 1500.0 RPM)
G21
G90
G94

G01 F80.00

M5
G00 Z15.0000
G00 X0.0000 Y0.0000
T1
M6    
(MSG, Change to Tool Dia = 1.0000)
M0
G00 Z15.0000

M03 S1500.0
G01 F80.00
G00 X20.7599 Y-17.5700
G01 F60.00
G01 Z-0.4000
G01 F80.00
G01 X20.7604 Y-17.5602
G01 X20.7618 Y-17.5505
G01 X20.7642 Y-17.5409
G01 X20.7675 Y-17.5317
G01 X20.7717 Y-17.5228
G01 X20.7768 Y-17.5144
G01 X20.7826 Y-17.5065
G01 X20.7892 Y-17.4992
G01 X20.7965 Y-17.4926
G01 X20.8044 Y-17.4868
G01 X20.8128 Y-17.4817
G01 X20.8217 Y-17.4775
G01 X20.8309 Y-17.4742
G01 X20.8405 Y-17.4718
G01 X20.8502 Y-17.4704
G01 X20.8600 Y-17.4699
G01 X20.8698 Y-17.4704
G01 X20.8795 Y-17.4718
G01 X20.8891 Y-17.4742
G01 X20.8983 Y-17.4775
G01 X20.9072 Y-17.4817
G01 X20.9156 Y-17.4868
G01 X20.9235 Y-17.4926
G01 X20.9308 Y-17.4992
G01 X20.9374 Y-17.5065
G01 X20.9418 Y-17.5124
G01 X20.9471 Y-17.5207
G01 X20.9515 Y-17.5294
G01 X20.9550 Y-17.5386
G01 X20.9577 Y-17.5481
G01 X20.9593 Y-17.5577
G01 X20.9601 Y-17.5675
G01 X20.9601 Y-21.3725
G01 X20.9593 Y-21.3823
G01 X20.9577 Y-21.3919
G01 X20.9550 Y-21.4014
G01 X20.9515 Y-21.4106
G01 X20.9483 Y-21.4172
G01 X20.9432 Y-21.4256
G01 X20.9374 Y-21.4335
G01 X20.9308 Y-21.4408
G01 X20.9235 Y-21.4474
G01 X20.9156 Y-21.4532
G01 X20.9072 Y-21.4583
G01 X20.9006 Y-21.4615
G01 X20.8914 Y-21.4650
G01 X20.8819 Y-21.4677
G01 X20.8723 Y-21.4693
G01 X20.8625 Y-21.4701
G01 X20.8526 Y-21.4698
G01 X20.8429 Y-21.4686
G01 X20.8333 Y-21.4665
G01 X20.8240 Y-21.4634
G01 X20.8150 Y-21.4594
G01 X20.8064 Y-21.4546
G01 X20.7984 Y-21.4489
G01 X20.7910 Y-21.4425
G01 X20.7842 Y-21.4354
G01 X20.7782 Y-21.4276
G01 X20.7729 Y-21.4193
G01 X20.7685 Y-21.4106
G01 X20.7650 Y-21.4014
G01 X20.7623 Y-21.3919
G01 X20.7607 Y-21.3823
G01 X20.7599 Y-21.3725
G01 X20.7599 Y-17.5700
G00 X20.7599 Y-17.5700
G01 F60.00
G01 Z-0.8000
G01 F80.00
G01 X20.7604 Y-17.5602
G01 X20.7618 Y-17.5505
G01 X20.7642 Y-17.5409
G01 X20.7675 Y-17.5317
G01 X20.7717 Y-17.5228
G01 X20.7768 Y-17.5144
G01 X20.7826 Y-17.5065
G01 X20.7892 Y-17.4992
G01 X20.7965 Y-17.4926
G01 X20.8044 Y-17.4868
G01 X20.8128 Y-17.4817
G01 X20.8217 Y-17.4775
G01 X20.8309 Y-17.4742
G01 X20.8405 Y-17.4718
G01 X20.8502 Y-17.4704
G01 X20.8600 Y-17.4699
G01 X20.8698 Y-17.4704
G01 X20.8795 Y-17.4718
G01 X20.8891 Y-17.4742
G01 X20.8983 Y-17.4775
G01 X20.9072 Y-17.4817
G01 X20.9156 Y-17.4868
G01 X20.9235 Y-17.4926
G01 X20.9308 Y-17.4992
G01 X20.9374 Y-17.5065
G01 X20.9418 Y-17.5124
G01 X20.9471 Y-17.5207
G01 X20.9515 Y-17.5294
G01 X20.9550 Y-17.5386
G01 X20.9577 Y-17.5481
G01 X20.9593 Y-17.5577
G01 X20.9601 Y-17.5675
G01 X20.9601 Y-21.3725
G01 X20.9593 Y-21.3823
G01 X20.9577 Y-21.3919
G01 X20.9550 Y-21.4014
G01 X20.9515 Y-21.4106
G01 X20.9483 Y-21.4172
G01 X20.9432 Y-21.4256
G01 X20.9374 Y-21.4335
G01 X20.9308 Y-21.4408
G01 X20.9235 Y-21.4474
G01 X20.9156 Y-21.4532
G01 X20.9072 Y-21.4583
G01 X20.9006 Y-21.4615
G01 X20.8914 Y-21.4650
G01 X20.8819 Y-21.4677
G01 X20.8723 Y-21.4693
G01 X20.8625 Y-21.4701
G01 X20.8526 Y-21.4698
G01 X20.8429 Y-21.4686
G01 X20.8333 Y-21.4665
G01 X20.8240 Y-21.4634
G01 X20.8150 Y-21.4594
G01 X20.8064 Y-21.4546
G01 X20.7984 Y-21.4489
G01 X20.7910 Y-21.4425
G01 X20.7842 Y-21.4354
G01 X20.7782 Y-21.4276
G01 X20.7729 Y-21.4193
G01 X20.7685 Y-21.4106
G01 X20.7650 Y-21.4014
G01 X20.7623 Y-21.3919
G01 X20.7607 Y-21.3823
G01 X20.7599 Y-21.3725
G01 X20.7599 Y-17.5700
G00 X20.7599 Y-17.5700
G01 F60.00
G01 Z-1.2000
G01 F80.00
G01 X20.7604 Y-17.5602
G01 X20.7618 Y-17.5505
G01 X20.7642 Y-17.5409
G01 X20.7675 Y-17.5317
G01 X20.7717 Y-17.5228
G01 X20.7768 Y-17.5144
G01 X20.7826 Y-17.5065
G01 X20.7892 Y-17.4992
G01 X20.7965 Y-17.4926
G01 X20.8044 Y-17.4868
G01 X20.8128 Y-17.4817
G01 X20.8217 Y-17.4775
G01 X20.8309 Y-17.4742
G01 X20.8405 Y-17.4718
G01 X20.8502 Y-17.4704
G01 X20.8600 Y-17.4699
G01 X20.8698 Y-17.4704
G01 X20.8795 Y-17.4718
G01 X20.8891 Y-17.4742
G01 X20.8983 Y-17.4775
G01 X20.9072 Y-17.4817
G01 X20.9156 Y-17.4868
G01 X20.9235 Y-17.4926
G01 X20.9308 Y-17.4992
G01 X20.9374 Y-17.5065
G01 X20.9418 Y-17.5124
G01 X20.9471 Y-17.5207
G01 X20.9515 Y-17.5294
G01 X20.9550 Y-17.5386
G01 X20.9577 Y-17.5481
G01 X20.9593 Y-17.5577
G01 X20.9601 Y-17.5675
G01 X20.9601 Y-21.3725
G01 X20.9593 Y-21.3823
G01 X20.9577 Y-21.3919
G01 X20.9550 Y-21.4014
G01 X20.9515 Y-21.4106
G01 X20.9483 Y-21.4172
G01 X20.9432 Y-21.4256
G01 X20.9374 Y-21.4335
G01 X20.9308 Y-21.4408
G01 X20.9235 Y-21.4474
G01 X20.9156 Y-21.4532
G01 X20.9072 Y-21.4583
G01 X20.9006 Y-21.4615
G01 X20.8914 Y-21.4650
G01 X20.8819 Y-21.4677
G01 X20.8723 Y-21.4693
G01 X20.8625 Y-21.4701
G01 X20.8526 Y-21.4698
G01 X20.8429 Y-21.4686
G01 X20.8333 Y-21.4665
G01 X20.8240 Y-21.4634
G01 X20.8150 Y-21.4594
G01 X20.8064 Y-21.4546
G01 X20.7984 Y-21.4489
G01 X20.7910 Y-21.4425
G01 X20.7842 Y-21.4354
G01 X20.7782 Y-21.4276
G01 X20.7729 Y-21.4193
G01 X20.7685 Y-21.4106
G01 X20.7650 Y-21.4014
G01 X20.7623 Y-21.3919
G01 X20.7607 Y-21.3823
G01 X20.7599 Y-21.3725
G01 X20.7599 Y-17.5700
G00 X20.7599 Y-17.5700
G01 F60.00
G01 Z-1.6000
G01 F80.00
G01 X20.7604 Y-17.5602
G01 X20.7618 Y-17.5505
G01 X20.7642 Y-17.5409
G01 X20.7675 Y-17.5317
G01 X20.7717 Y-17.5228
G01 X20.7768 Y-17.5144
G01 X20.7826 Y-17.5065
G01 X20.7892 Y-17.4992
G01 X20.7965 Y-17.4926
G01 X20.8044 Y-17.4868
G01 X20.8128 Y-17.4817
G01 X20.8217 Y-17.4775
G01 X20.8309 Y-17.4742
G01 X20.8405 Y-17.4718
G01 X20.8502 Y-17.4704
G01 X20.8600 Y-17.4699
G01 X20.8698 Y-17.4704
G01 X20.8795 Y-17.4718
G01 X20.8891 Y-17.4742
G01 X20.8983 Y-17.4775
G01 X20.9072 Y-17.4817
G01 X20.9156 Y-17.4868
G01 X20.9235 Y-17.4926
G01 X20.9308 Y-17.4992
G01 X20.9374 Y-17.5065
G01 X20.9418 Y-17.5124
G01 X20.9471 Y-17.5207
G01 X20.9515 Y-17.5294
G01 X20.9550 Y-17.5386
G01 X20.9577 Y-17.5481
G01 X20.9593 Y-17.5577
G01 X20.9601 Y-17.5675
G01 X20.9601 Y-21.3725
G01 X20.9593 Y-21.3823
G01 X20.9577 Y-21.3919
G01 X20.9550 Y-21.4014
G01 X20.9515 Y-21.4106
G01 X20.9483 Y-21.4172
G01 X20.9432 Y-21.4256
G01 X20.9374 Y-21.4335
G01 X20.9308 Y-21.4408
G01 X20.9235 Y-21.4474
G01 X20.9156 Y-21.4532
G01 X20.9072 Y-21.4583
G01 X20.9006 Y-21.4615
G01 X20.8914 Y-21.4650
G01 X20.8819 Y-21.4677
G01 X20.8723 Y-21.4693
G01 X20.8625 Y-21.4701
G01 X20.8526 Y-21.4698
G01 X20.8429 Y-21.4686
G01 X20.8333 Y-21.4665
G01 X20.8240 Y-21.4634
G01 X20.8150 Y-21.4594
G01 X20.8064 Y-21.4546
G01 X20.7984 Y-21.4489
G01 X20.7910 Y-21.4425
G01 X20.7842 Y-21.4354
G01 X20.7782 Y-21.4276
G01 X20.7729 Y-21.4193
G01 X20.7685 Y-21.4106
G01 X20.7650 Y-21.4014
G01 X20.7623 Y-21.3919
G01 X20.7607 Y-21.3823
G01 X20.7599 Y-21.3725
G01 X20.7599 Y-17.5700
G00 X20.7599 Y-17.5700
G01 F60.00
G01 Z-2.0000
G01 F80.00
G01 X20.7604 Y-17.5602
G01 X20.7618 Y-17.5505
G01 X20.7642 Y-17.5409
G01 X20.7675 Y-17.5317
G01 X20.7717 Y-17.5228
G01 X20.7768 Y-17.5144
G01 X20.7826 Y-17.5065
G01 X20.7892 Y-17.4992
G01 X20.7965 Y-17.4926
G01 X20.8044 Y-17.4868
G01 X20.8128 Y-17.4817
G01 X20.8217 Y-17.4775
G01 X20.8309 Y-17.4742
G01 X20.8405 Y-17.4718
G01 X20.8502 Y-17.4704
G01 X20.8600 Y-17.4699
G01 X20.8698 Y-17.4704
G01 X20.8795 Y-17.4718
G01 X20.8891 Y-17.4742
G01 X20.8983 Y-17.4775
G01 X20.9072 Y-17.4817
G01 X20.9156 Y-17.4868
G01 X20.9235 Y-17.4926
G01 X20.9308 Y-17.4992
G01 X20.9374 Y-17.5065
G01 X20.9418 Y-17.5124
G01 X20.9471 Y-17.5207
G01 X20.9515 Y-17.5294
G01 X20.9550 Y-17.5386
G01 X20.9577 Y-17.5481
G01 X20.9593 Y-17.5577
G01 X20.9601 Y-17.5675
G01 X20.9601 Y-21.3725
G01 X20.9593 Y-21.3823
G01 X20.9577 Y-21.3919
G01 X20.9550 Y-21.4014
G01 X20.9515 Y-21.4106
G01 X20.9483 Y-21.4172
G01 X20.9432 Y-21.4256
G01 X20.9374 Y-21.4335
G01 X20.9308 Y-21.4408
G01 X20.9235 Y-21.4474
G01 X20.9156 Y-21.4532
G01 X20.9072 Y-21.4583
G01 X20.9006 Y-21.4615
G01 X20.8914 Y-21.4650
G01 X20.8819 Y-21.4677
G01 X20.8723 Y-21.4693
G01 X20.8625 Y-21.4701
G01 X20.8526 Y-21.4698
G01 X20.8429 Y-21.4686
G01 X20.8333 Y-21.4665
G01 X20.8240 Y-21.4634
G01 X20.8150 Y-21.4594
G01 X20.8064 Y-21.4546
G01 X20.7984 Y-21.4489
G01 X20.7910 Y-21.4425
G01 X20.7842 Y-21.4354
G01 X20.7782 Y-21.4276
G01 X20.7729 Y-21.4193
G01 X20.7685 Y-21.4106
G01 X20.7650 Y-21.4014
G01 X20.7623 Y-21.3919
G01 X20.7607 Y-21.3823
G01 X20.7599 Y-21.3725
G01 X20.7599 Y-17.5700
G00 Z2.0000
G00 X27.1599 Y-17.5700
G01 F60.00
G01 Z-0.4000
G01 F80.00
G01 X27.1604 Y-17.5602
G01 X27.1618 Y-17.5505
G01 X27.1642 Y-17.5409
G01 X27.1675 Y-17.5317
G01 X27.1717 Y-17.5228
G01 X27.1768 Y-17.5144
G01 X27.1826 Y-17.5065
G01 X27.1892 Y-17.4992
G01 X27.1965 Y-17.4926
G01 X27.2044 Y-17.4868
G01 X27.2128 Y-17.4817
G01 X27.2217 Y-17.4775
G01 X27.2309 Y-17.4742
G01 X27.2405 Y-17.4718
G01 X27.2502 Y-17.4704
G01 X27.2600 Y-17.4699
G01 X27.2698 Y-17.4704
G01 X27.2795 Y-17.4718
G01 X27.2891 Y-17.4742
G01 X27.2983 Y-17.4775
G01 X27.3072 Y-17.4817
G01 X27.3156 Y-17.4868
G01 X27.3235 Y-17.4926
G01 X27.3308 Y-17.4992
G01 X27.3374 Y-17.5065
G01 X27.3418 Y-17.5124
G01 X27.3471 Y-17.5207
G01 X27.3515 Y-17.5294
G01 X27.3550 Y-17.5386
G01 X27.3577 Y-17.5481
G01 X27.3593 Y-17.5577
G01 X27.3601 Y-17.5675
G01 X27.3601 Y-21.3725
G01 X27.3593 Y-21.3823
G01 X27.3577 Y-21.3919
G01 X27.3550 Y-21.4014
G01 X27.3515 Y-21.4106
G01 X27.3483 Y-21.4172
G01 X27.3432 Y-21.4256
G01 X27.3374 Y-21.4335
G01 X27.3308 Y-21.4408
G01 X27.3235 Y-21.4474
G01 X27.3156 Y-21.4532
G01 X27.3072 Y-21.4583
G01 X27.3006 Y-21.4615
G01 X27.2914 Y-21.4650
G01 X27.2819 Y-21.4677
G01 X27.2723 Y-21.4693
G01 X27.2625 Y-21.4701
G01 X27.2526 Y-21.4698
G01 X27.2429 Y-21.4686
G01 X27.2333 Y-21.4665
G01 X27.2240 Y-21.4634
G01 X27.2150 Y-21.4594
G01 X27.2064 Y-21.4546
G01 X27.1984 Y-21.4489
G01 X27.1910 Y-21.4425
G01 X27.1842 Y-21.4354
G01 X27.1782 Y-21.4276
G01 X27.1729 Y-21.4193
G01 X27.1685 Y-21.4106
G01 X27.1650 Y-21.4014
G01 X27.1623 Y-21.3919
G01 X27.1607 Y-21.3823
G01 X27.1599 Y-21.3725
G01 X27.1599 Y-17.5700
G00 X27.1599 Y-17.5700
G01 F60.00
G01 Z-0.8000
G01 F80.00
G01 X27.1604 Y-17.5602
G01 X27.1618 Y-17.5505
G01 X27.1642 Y-17.5409
G01 X27.1675 Y-17.5317
G01 X27.1717 Y-17.5228
G01 X27.1768 Y-17.5144
G01 X27.1826 Y-17.5065
G01 X27.1892 Y-17.4992
G01 X27.1965 Y-17.4926
G01 X27.2044 Y-17.4868
G01 X27.2128 Y-17.4817
G01 X27.2217 Y-17.4775
G01 X27.2309 Y-17.4742
G01 X27.2405 Y-17.4718
G01 X27.2502 Y-17.4704
G01 X27.2600 Y-17.4699
G01 X27.2698 Y-17.4704
G01 X27.2795 Y-17.4718
G01 X27.2891 Y-17.4742
G01 X27.2983 Y-17.4775
G01 X27.3072 Y-17.4817
G01 X27.3156 Y-17.4868
G01 X27.3235 Y-17.4926
G01 X27.3308 Y-17.4992
G01 X27.3374 Y-17.5065
G01 X27.3418 Y-17.5124
G01 X27.3471 Y-17.5207
G01 X27.3515 Y-17.5294
G01 X27.3550 Y-17.5386
G01 X27.3577 Y-17.5481
G01 X27.3593 Y-17.5577
G01 X27.3601 Y-17.5675
G01 X27.3601 Y-21.3725
G01 X27.3593 Y-21.3823
G01 X27.3577 Y-21.3919
G01 X27.3550 Y-21.4014
G01 X27.3515 Y-21.4106
G01 X27.3483 Y-21.4172
G01 X27.3432 Y-21.4256
G01 X27.3374 Y-21.4335
G01 X27.3308 Y-21.4408
G01 X27.3235 Y-21.4474
G01 X27.3156 Y-21.4532
G01 X27.3072 Y-21.4583
G01 X27.3006 Y-21.4615
G01 X27.2914 Y-21.4650
G01 X27.2819 Y-21.4677
G01 X27.2723 Y-21.4693
G01 X27.2625 Y-21.4701
G01 X27.2526 Y-21.4698
G01 X27.2429 Y-21.4686
G01 X27.2333 Y-21.4665
G01 X27.2240 Y-21.4634
G01 X27.2150 Y-21.4594
G01 X27.2064 Y-21.4546
G01 X27.1984 Y-21.4489
G01 X27.1910 Y-21.4425
G01 X27.1842 Y-21.4354
G01 X27.1782 Y-21.4276
G01 X27.1729 Y-21.4193
G01 X27.1685 Y-21.4106
G01 X27.1650 Y-21.4014
G01 X27.1623 Y-21.3919
G01 X27.1607 Y-21.3823
G01 X27.1599 Y-21.3725
G01 X27.1599 Y-17.5700
G00 X27.1599 Y-17.5700
G01 F60.00
G01 Z-1.2000
G01 F80.00
G01 X27.1604 Y-17.5602
G01 X27.1618 Y-17.5505
G01 X27.1642 Y-17.5409
G01 X27.1675 Y-17.5317
G01 X27.1717 Y-17.5228
G01 X27.1768 Y-17.5144
G01 X27.1826 Y-17.5065
G01 X27.1892 Y-17.4992
G01 X27.1965 Y-17.4926
G01 X27.2044 Y-17.4868
G01 X27.2128 Y-17.4817
G01 X27.2217 Y-17.4775
G01 X27.2309 Y-17.4742
G01 X27.2405 Y-17.4718
G01 X27.2502 Y-17.4704
G01 X27.2600 Y-17.4699
G01 X27.2698 Y-17.4704
G01 X27.2795 Y-17.4718
G01 X27.2891 Y-17.4742
G01 X27.2983 Y-17.4775
G01 X27.3072 Y-17.4817
G01 X27.3156 Y-17.4868
G01 X27.3235 Y-17.4926
G01 X27.3308 Y-17.4992
G01 X27.3374 Y-17.5065
G01 X27.3418 Y-17.5124
G01 X27.3471 Y-17.5207
G01 X27.3515 Y-17.5294
G01 X27.3550 Y-17.5386
G01 X27.3577 Y-17.5481
G01 X27.3593 Y-17.5577
G01 X27.3601 Y-17.5675
G01 X27.3601 Y-21.3725
G01 X27.3593 Y-21.3823
G01 X27.3577 Y-21.3919
G01 X27.3550 Y-21.4014
G01 X27.3515 Y-21.4106
G01 X27.3483 Y-21.4172
G01 X27.3432 Y-21.4256
G01 X27.3374 Y-21.4335
G01 X27.3308 Y-21.4408
G01 X27.3235 Y-21.4474
G01 X27.3156 Y-21.4532
G01 X27.3072 Y-21.4583
G01 X27.3006 Y-21.4615
G01 X27.2914 Y-21.4650
G01 X27.2819 Y-21.4677
G01 X27.2723 Y-21.4693
G01 X27.2625 Y-21.4701
G01 X27.2526 Y-21.4698
G01 X27.2429 Y-21.4686
G01 X27.2333 Y-21.4665
G01 X27.2240 Y-21.4634
G01 X27.2150 Y-21.4594
G01 X27.2064 Y-21.4546
G01 X27.1984 Y-21.4489
G01 X27.1910 Y-21.4425
G01 X27.1842 Y-21.4354
G01 X27.1782 Y-21.4276
G01 X27.1729 Y-21.4193
G01 X27.1685 Y-21.4106
G01 X27.1650 Y-21.4014
G01 X27.1623 Y-21.3919
G01 X27.1607 Y-21.3823
G01 X27.1599 Y-21.3725
G01 X27.1599 Y-17.5700
G00 X27.1599 Y-17.5700
G01 F60.00
G01 Z-1.6000
G01 F80.00
G01 X27.1604 Y-17.5602
G01 X27.1618 Y-17.5505
G01 X27.1642 Y-17.5409
G01 X27.1675 Y-17.5317
G01 X27.1717 Y-17.5228
G01 X27.1768 Y-17.5144
G01 X27.1826 Y-17.5065
G01 X27.1892 Y-17.4992
G01 X27.1965 Y-17.4926
G01 X27.2044 Y-17.4868
G01 X27.2128 Y-17.4817
G01 X27.2217 Y-17.4775
G01 X27.2309 Y-17.4742
G01 X27.2405 Y-17.4718
G01 X27.2502 Y-17.4704
G01 X27.2600 Y-17.4699
G01 X27.2698 Y-17.4704
G01 X27.2795 Y-17.4718
G01 X27.2891 Y-17.4742
G01 X27.2983 Y-17.4775
G01 X27.3072 Y-17.4817
G01 X27.3156 Y-17.4868
G01 X27.3235 Y-17.4926
G01 X27.3308 Y-17.4992
G01 X27.3374 Y-17.5065
G01 X27.3418 Y-17.5124
G01 X27.3471 Y-17.5207
G01 X27.3515 Y-17.5294
G01 X27.3550 Y-17.5386
G01 X27.3577 Y-17.5481
G01 X27.3593 Y-17.5577
G01 X27.3601 Y-17.5675
G01 X27.3601 Y-21.3725
G01 X27.3593 Y-21.3823
G01 X27.3577 Y-21.3919
G01 X27.3550 Y-21.4014
G01 X27.3515 Y-21.4106
G01 X27.3483 Y-21.4172
G01 X27.3432 Y-21.4256
G01 X27.3374 Y-21.4335
G01 X27.3308 Y-21.4408
G01 X27.3235 Y-21.4474
G01 X27.3156 Y-21.4532
G01 X27.3072 Y-21.4583
G01 X27.3006 Y-21.4615
G01 X27.2914 Y-21.4650
G01 X27.2819 Y-21.4677
G01 X27.2723 Y-21.4693
G01 X27.2625 Y-21.4701
G01 X27.2526 Y-21.4698
G01 X27.2429 Y-21.4686
G01 X27.2333 Y-21.4665
G01 X27.2240 Y-21.4634
G01 X27.2150 Y-21.4594
G01 X27.2064 Y-21.4546
G01 X27.1984 Y-21.4489
G01 X27.1910 Y-21.4425
G01 X27.1842 Y-21.4354
G01 X27.1782 Y-21.4276
G01 X27.1729 Y-21.4193
G01 X27.1685 Y-21.4106
G01 X27.1650 Y-21.4014
G01 X27.1623 Y-21.3919
G01 X27.1607 Y-21.3823
G01 X27.1599 Y-21.3725
G01 X27.1599 Y-17.5700
G00 X27.1599 Y-17.5700
G01 F60.00
G01 Z-2.0000
G01 F80.00
G01 X27.1604 Y-17.5602
G01 X27.1618 Y-17.5505
G01 X27.1642 Y-17.5409
G01 X27.1675 Y-17.5317
G01 X27.1717 Y-17.5228
G01 X27.1768 Y-17.5144
G01 X27.1826 Y-17.5065
G01 X27.1892 Y-17.4992
G01 X27.1965 Y-17.4926
G01 X27.2044 Y-17.4868
G01 X27.2128 Y-17.4817
G01 X27.2217 Y-17.4775
G01 X27.2309 Y-17.4742
G01 X27.2405 Y-17.4718
G01 X27.2502 Y-17.4704
G01 X27.2600 Y-17.4699
G01 X27.2698 Y-17.4704
G01 X27.2795 Y-17.4718
G01 X27.2891 Y-17.4742
G01 X27.2983 Y-17.4775
G01 X27.3072 Y-17.4817
G01 X27.3156 Y-17.4868
G01 X27.3235 Y-17.4926
G01 X27.3308 Y-17.4992
G01 X27.3374 Y-17.5065
G01 X27.3418 Y-17.5124
G01 X27.3471 Y-17.5207
G01 X27.3515 Y-17.5294
G01 X27.3550 Y-17.5386
G01 X27.3577 Y-17.5481
G01 X27.3593 Y-17.5577
G01 X27.3601 Y-17.5675
G01 X27.3601 Y-21.3725
G01 X27.3593 Y-21.3823
G01 X27.3577 Y-21.3919
G01 X27.3550 Y-21.4014
G01 X27.3515 Y-21.4106
G01 X27.3483 Y-21.4172
G01 X27.3432 Y-21.4256
G01 X27.3374 Y-21.4335
G01 X27.3308 Y-21.4408
G01 X27.3235 Y-21.4474
G01 X27.3156 Y-21.4532
G01 X27.3072 Y-21.4583
G01 X27.3006 Y-21.4615
G01 X27.2914 Y-21.4650
G01 X27.2819 Y-21.4677
G01 X27.2723 Y-21.4693
G01 X27.2625 Y-21.4701
G01 X27.2526 Y-21.4698
G01 X27.2429 Y-21.4686
G01 X27.2333 Y-21.4665
G01 X27.2240 Y-21.4634
G01 X27.2150 Y-21.4594
G01 X27.2064 Y-21.4546
G01 X27.1984 Y-21.4489
G01 X27.1910 Y-21.4425
G01 X27.1842 Y-21.4354
G01 X27.1782 Y-21.4276
G01 X27.1729 Y-21.4193
G01 X27.1685 Y-21.4106
G01 X27.1650 Y-21.4014
G01 X27.1623 Y-21.3919
G01 X27.1607 Y-21.3823
G01 X27.1599 Y-21.3725
G01 X27.1599 Y-17.5700
G00 Z2.0000
M05
G00 Z2.0000
G00 Z15.00


