(G-CODE GENERATED BY FLATCAM v8.994 - www.flatcam.org - Version Date: 2020/11/7)

(Name: Placa1.drl_1_mill_2_cnc)
(Type: G-code from Geometry)
(Units: MM)

(Created on Saturday, 20 May 2023 at 13:43)

(This preprocessor is the default preprocessor used by FlatCAM.)
(It is made to work with MACH3 compatible motion controllers.)

(TOOL DIAMETER: 1.0 mm)
(Feedrate_XY: 70.0 mm/min)
(Feedrate_Z: 60.0 mm/min)
(Feedrate rapids 1500.0 mm/min)

(Z_Cut: -2.0 mm)
(DepthPerCut: 0.4 mm <=>5 passes)
(Z_Move: 2.0 mm)
(Z Start: None mm)
(Z End: 15.0 mm)
(X,Y End: None mm)
(Steps per circle: 64)
(Preprocessor Geometry: default)

(X range:   25.9150 ...   89.0750  mm)
(Y range:  -67.6550 ...  -10.2100  mm)

(Spindle Speed: 1500.0 RPM)
G21
G90
G94

G01 F70.00

M5
G00 Z15.0000
G00 X0.0000 Y0.0000
T1
M6    
(MSG, Change to Tool Dia = 1.0000)
M0
G00 Z15.0000

M03 S1500.0
G01 F70.00
G00 X28.1150 Y-31.6300
G01 F60.00
G01 Z-0.4000
G01 F70.00
G01 X28.1097 Y-31.7378
G01 X28.0939 Y-31.8446
G01 X28.0676 Y-31.9493
G01 X28.0313 Y-32.0510
G01 X27.9851 Y-32.1485
G01 X27.9296 Y-32.2411
G01 X27.8653 Y-32.3278
G01 X27.7928 Y-32.4078
G01 X27.7128 Y-32.4803
G01 X27.6261 Y-32.5446
G01 X27.5335 Y-32.6001
G01 X27.4360 Y-32.6463
G01 X27.3343 Y-32.6826
G01 X27.2296 Y-32.7089
G01 X27.1228 Y-32.7247
G01 X27.0150 Y-32.7300
G01 X26.9072 Y-32.7247
G01 X26.8004 Y-32.7089
G01 X26.6957 Y-32.6826
G01 X26.5940 Y-32.6463
G01 X26.4965 Y-32.6001
G01 X26.4039 Y-32.5446
G01 X26.3172 Y-32.4803
G01 X26.2372 Y-32.4078
G01 X26.1647 Y-32.3278
G01 X26.1004 Y-32.2411
G01 X26.0449 Y-32.1485
G01 X25.9987 Y-32.0510
G01 X25.9624 Y-31.9493
G01 X25.9361 Y-31.8446
G01 X25.9203 Y-31.7378
G01 X25.9150 Y-31.6300
G01 X25.9203 Y-31.5222
G01 X25.9361 Y-31.4154
G01 X25.9624 Y-31.3107
G01 X25.9987 Y-31.2090
G01 X26.0449 Y-31.1115
G01 X26.1004 Y-31.0189
G01 X26.1647 Y-30.9322
G01 X26.2372 Y-30.8522
G01 X26.3172 Y-30.7797
G01 X26.4039 Y-30.7154
G01 X26.4965 Y-30.6599
G01 X26.5940 Y-30.6137
G01 X26.6957 Y-30.5774
G01 X26.8004 Y-30.5511
G01 X26.9072 Y-30.5353
G01 X27.0150 Y-30.5300
G01 X27.1228 Y-30.5353
G01 X27.2296 Y-30.5511
G01 X27.3343 Y-30.5774
G01 X27.4360 Y-30.6137
G01 X27.5335 Y-30.6599
G01 X27.6261 Y-30.7154
G01 X27.7128 Y-30.7797
G01 X27.7928 Y-30.8522
G01 X27.8653 Y-30.9322
G01 X27.9296 Y-31.0189
G01 X27.9851 Y-31.1115
G01 X28.0313 Y-31.2090
G01 X28.0676 Y-31.3107
G01 X28.0939 Y-31.4154
G01 X28.1097 Y-31.5222
G01 X28.1150 Y-31.6300
G00 X28.1150 Y-31.6300
G01 F60.00
G01 Z-0.8000
G01 F70.00
G01 X28.1097 Y-31.7378
G01 X28.0939 Y-31.8446
G01 X28.0676 Y-31.9493
G01 X28.0313 Y-32.0510
G01 X27.9851 Y-32.1485
G01 X27.9296 Y-32.2411
G01 X27.8653 Y-32.3278
G01 X27.7928 Y-32.4078
G01 X27.7128 Y-32.4803
G01 X27.6261 Y-32.5446
G01 X27.5335 Y-32.6001
G01 X27.4360 Y-32.6463
G01 X27.3343 Y-32.6826
G01 X27.2296 Y-32.7089
G01 X27.1228 Y-32.7247
G01 X27.0150 Y-32.7300
G01 X26.9072 Y-32.7247
G01 X26.8004 Y-32.7089
G01 X26.6957 Y-32.6826
G01 X26.5940 Y-32.6463
G01 X26.4965 Y-32.6001
G01 X26.4039 Y-32.5446
G01 X26.3172 Y-32.4803
G01 X26.2372 Y-32.4078
G01 X26.1647 Y-32.3278
G01 X26.1004 Y-32.2411
G01 X26.0449 Y-32.1485
G01 X25.9987 Y-32.0510
G01 X25.9624 Y-31.9493
G01 X25.9361 Y-31.8446
G01 X25.9203 Y-31.7378
G01 X25.9150 Y-31.6300
G01 X25.9203 Y-31.5222
G01 X25.9361 Y-31.4154
G01 X25.9624 Y-31.3107
G01 X25.9987 Y-31.2090
G01 X26.0449 Y-31.1115
G01 X26.1004 Y-31.0189
G01 X26.1647 Y-30.9322
G01 X26.2372 Y-30.8522
G01 X26.3172 Y-30.7797
G01 X26.4039 Y-30.7154
G01 X26.4965 Y-30.6599
G01 X26.5940 Y-30.6137
G01 X26.6957 Y-30.5774
G01 X26.8004 Y-30.5511
G01 X26.9072 Y-30.5353
G01 X27.0150 Y-30.5300
G01 X27.1228 Y-30.5353
G01 X27.2296 Y-30.5511
G01 X27.3343 Y-30.5774
G01 X27.4360 Y-30.6137
G01 X27.5335 Y-30.6599
G01 X27.6261 Y-30.7154
G01 X27.7128 Y-30.7797
G01 X27.7928 Y-30.8522
G01 X27.8653 Y-30.9322
G01 X27.9296 Y-31.0189
G01 X27.9851 Y-31.1115
G01 X28.0313 Y-31.2090
G01 X28.0676 Y-31.3107
G01 X28.0939 Y-31.4154
G01 X28.1097 Y-31.5222
G01 X28.1150 Y-31.6300
G00 X28.1150 Y-31.6300
G01 F60.00
G01 Z-1.2000
G01 F70.00
G01 X28.1097 Y-31.7378
G01 X28.0939 Y-31.8446
G01 X28.0676 Y-31.9493
G01 X28.0313 Y-32.0510
G01 X27.9851 Y-32.1485
G01 X27.9296 Y-32.2411
G01 X27.8653 Y-32.3278
G01 X27.7928 Y-32.4078
G01 X27.7128 Y-32.4803
G01 X27.6261 Y-32.5446
G01 X27.5335 Y-32.6001
G01 X27.4360 Y-32.6463
G01 X27.3343 Y-32.6826
G01 X27.2296 Y-32.7089
G01 X27.1228 Y-32.7247
G01 X27.0150 Y-32.7300
G01 X26.9072 Y-32.7247
G01 X26.8004 Y-32.7089
G01 X26.6957 Y-32.6826
G01 X26.5940 Y-32.6463
G01 X26.4965 Y-32.6001
G01 X26.4039 Y-32.5446
G01 X26.3172 Y-32.4803
G01 X26.2372 Y-32.4078
G01 X26.1647 Y-32.3278
G01 X26.1004 Y-32.2411
G01 X26.0449 Y-32.1485
G01 X25.9987 Y-32.0510
G01 X25.9624 Y-31.9493
G01 X25.9361 Y-31.8446
G01 X25.9203 Y-31.7378
G01 X25.9150 Y-31.6300
G01 X25.9203 Y-31.5222
G01 X25.9361 Y-31.4154
G01 X25.9624 Y-31.3107
G01 X25.9987 Y-31.2090
G01 X26.0449 Y-31.1115
G01 X26.1004 Y-31.0189
G01 X26.1647 Y-30.9322
G01 X26.2372 Y-30.8522
G01 X26.3172 Y-30.7797
G01 X26.4039 Y-30.7154
G01 X26.4965 Y-30.6599
G01 X26.5940 Y-30.6137
G01 X26.6957 Y-30.5774
G01 X26.8004 Y-30.5511
G01 X26.9072 Y-30.5353
G01 X27.0150 Y-30.5300
G01 X27.1228 Y-30.5353
G01 X27.2296 Y-30.5511
G01 X27.3343 Y-30.5774
G01 X27.4360 Y-30.6137
G01 X27.5335 Y-30.6599
G01 X27.6261 Y-30.7154
G01 X27.7128 Y-30.7797
G01 X27.7928 Y-30.8522
G01 X27.8653 Y-30.9322
G01 X27.9296 Y-31.0189
G01 X27.9851 Y-31.1115
G01 X28.0313 Y-31.2090
G01 X28.0676 Y-31.3107
G01 X28.0939 Y-31.4154
G01 X28.1097 Y-31.5222
G01 X28.1150 Y-31.6300
G00 X28.1150 Y-31.6300
G01 F60.00
G01 Z-1.6000
G01 F70.00
G01 X28.1097 Y-31.7378
G01 X28.0939 Y-31.8446
G01 X28.0676 Y-31.9493
G01 X28.0313 Y-32.0510
G01 X27.9851 Y-32.1485
G01 X27.9296 Y-32.2411
G01 X27.8653 Y-32.3278
G01 X27.7928 Y-32.4078
G01 X27.7128 Y-32.4803
G01 X27.6261 Y-32.5446
G01 X27.5335 Y-32.6001
G01 X27.4360 Y-32.6463
G01 X27.3343 Y-32.6826
G01 X27.2296 Y-32.7089
G01 X27.1228 Y-32.7247
G01 X27.0150 Y-32.7300
G01 X26.9072 Y-32.7247
G01 X26.8004 Y-32.7089
G01 X26.6957 Y-32.6826
G01 X26.5940 Y-32.6463
G01 X26.4965 Y-32.6001
G01 X26.4039 Y-32.5446
G01 X26.3172 Y-32.4803
G01 X26.2372 Y-32.4078
G01 X26.1647 Y-32.3278
G01 X26.1004 Y-32.2411
G01 X26.0449 Y-32.1485
G01 X25.9987 Y-32.0510
G01 X25.9624 Y-31.9493
G01 X25.9361 Y-31.8446
G01 X25.9203 Y-31.7378
G01 X25.9150 Y-31.6300
G01 X25.9203 Y-31.5222
G01 X25.9361 Y-31.4154
G01 X25.9624 Y-31.3107
G01 X25.9987 Y-31.2090
G01 X26.0449 Y-31.1115
G01 X26.1004 Y-31.0189
G01 X26.1647 Y-30.9322
G01 X26.2372 Y-30.8522
G01 X26.3172 Y-30.7797
G01 X26.4039 Y-30.7154
G01 X26.4965 Y-30.6599
G01 X26.5940 Y-30.6137
G01 X26.6957 Y-30.5774
G01 X26.8004 Y-30.5511
G01 X26.9072 Y-30.5353
G01 X27.0150 Y-30.5300
G01 X27.1228 Y-30.5353
G01 X27.2296 Y-30.5511
G01 X27.3343 Y-30.5774
G01 X27.4360 Y-30.6137
G01 X27.5335 Y-30.6599
G01 X27.6261 Y-30.7154
G01 X27.7128 Y-30.7797
G01 X27.7928 Y-30.8522
G01 X27.8653 Y-30.9322
G01 X27.9296 Y-31.0189
G01 X27.9851 Y-31.1115
G01 X28.0313 Y-31.2090
G01 X28.0676 Y-31.3107
G01 X28.0939 Y-31.4154
G01 X28.1097 Y-31.5222
G01 X28.1150 Y-31.6300
G00 X28.1150 Y-31.6300
G01 F60.00
G01 Z-2.0000
G01 F70.00
G01 X28.1097 Y-31.7378
G01 X28.0939 Y-31.8446
G01 X28.0676 Y-31.9493
G01 X28.0313 Y-32.0510
G01 X27.9851 Y-32.1485
G01 X27.9296 Y-32.2411
G01 X27.8653 Y-32.3278
G01 X27.7928 Y-32.4078
G01 X27.7128 Y-32.4803
G01 X27.6261 Y-32.5446
G01 X27.5335 Y-32.6001
G01 X27.4360 Y-32.6463
G01 X27.3343 Y-32.6826
G01 X27.2296 Y-32.7089
G01 X27.1228 Y-32.7247
G01 X27.0150 Y-32.7300
G01 X26.9072 Y-32.7247
G01 X26.8004 Y-32.7089
G01 X26.6957 Y-32.6826
G01 X26.5940 Y-32.6463
G01 X26.4965 Y-32.6001
G01 X26.4039 Y-32.5446
G01 X26.3172 Y-32.4803
G01 X26.2372 Y-32.4078
G01 X26.1647 Y-32.3278
G01 X26.1004 Y-32.2411
G01 X26.0449 Y-32.1485
G01 X25.9987 Y-32.0510
G01 X25.9624 Y-31.9493
G01 X25.9361 Y-31.8446
G01 X25.9203 Y-31.7378
G01 X25.9150 Y-31.6300
G01 X25.9203 Y-31.5222
G01 X25.9361 Y-31.4154
G01 X25.9624 Y-31.3107
G01 X25.9987 Y-31.2090
G01 X26.0449 Y-31.1115
G01 X26.1004 Y-31.0189
G01 X26.1647 Y-30.9322
G01 X26.2372 Y-30.8522
G01 X26.3172 Y-30.7797
G01 X26.4039 Y-30.7154
G01 X26.4965 Y-30.6599
G01 X26.5940 Y-30.6137
G01 X26.6957 Y-30.5774
G01 X26.8004 Y-30.5511
G01 X26.9072 Y-30.5353
G01 X27.0150 Y-30.5300
G01 X27.1228 Y-30.5353
G01 X27.2296 Y-30.5511
G01 X27.3343 Y-30.5774
G01 X27.4360 Y-30.6137
G01 X27.5335 Y-30.6599
G01 X27.6261 Y-30.7154
G01 X27.7128 Y-30.7797
G01 X27.7928 Y-30.8522
G01 X27.8653 Y-30.9322
G01 X27.9296 Y-31.0189
G01 X27.9851 Y-31.1115
G01 X28.0313 Y-31.2090
G01 X28.0676 Y-31.3107
G01 X28.0939 Y-31.4154
G01 X28.1097 Y-31.5222
G01 X28.1150 Y-31.6300
G00 Z2.0000
G00 X42.7200 Y-65.2850
G01 F60.00
G01 Z-0.4000
G01 F70.00
G01 X42.7147 Y-65.3928
G01 X42.6989 Y-65.4996
G01 X42.6726 Y-65.6043
G01 X42.6363 Y-65.7060
G01 X42.5901 Y-65.8035
G01 X42.5346 Y-65.8961
G01 X42.4703 Y-65.9828
G01 X42.3978 Y-66.0628
G01 X42.3178 Y-66.1353
G01 X42.2311 Y-66.1996
G01 X42.1385 Y-66.2551
G01 X42.0410 Y-66.3013
G01 X41.9393 Y-66.3376
G01 X41.8346 Y-66.3639
G01 X41.7278 Y-66.3797
G01 X41.6200 Y-66.3850
G01 X41.5122 Y-66.3797
G01 X41.4054 Y-66.3639
G01 X41.3007 Y-66.3376
G01 X41.1990 Y-66.3013
G01 X41.1015 Y-66.2551
G01 X41.0089 Y-66.1996
G01 X40.9222 Y-66.1353
G01 X40.8422 Y-66.0628
G01 X40.7697 Y-65.9828
G01 X40.7054 Y-65.8961
G01 X40.6499 Y-65.8035
G01 X40.6037 Y-65.7060
G01 X40.5674 Y-65.6043
G01 X40.5411 Y-65.4996
G01 X40.5253 Y-65.3928
G01 X40.5200 Y-65.2850
G01 X40.5253 Y-65.1772
G01 X40.5411 Y-65.0704
G01 X40.5674 Y-64.9657
G01 X40.6037 Y-64.8640
G01 X40.6499 Y-64.7665
G01 X40.7054 Y-64.6739
G01 X40.7697 Y-64.5872
G01 X40.8422 Y-64.5072
G01 X40.9222 Y-64.4347
G01 X41.0089 Y-64.3704
G01 X41.1015 Y-64.3149
G01 X41.1990 Y-64.2687
G01 X41.3007 Y-64.2324
G01 X41.4054 Y-64.2061
G01 X41.5122 Y-64.1903
G01 X41.6200 Y-64.1850
G01 X41.7278 Y-64.1903
G01 X41.8346 Y-64.2061
G01 X41.9393 Y-64.2324
G01 X42.0410 Y-64.2687
G01 X42.1385 Y-64.3149
G01 X42.2311 Y-64.3704
G01 X42.3178 Y-64.4347
G01 X42.3978 Y-64.5072
G01 X42.4703 Y-64.5872
G01 X42.5346 Y-64.6739
G01 X42.5901 Y-64.7665
G01 X42.6363 Y-64.8640
G01 X42.6726 Y-64.9657
G01 X42.6989 Y-65.0704
G01 X42.7147 Y-65.1772
G01 X42.7200 Y-65.2850
G00 X42.7200 Y-65.2850
G01 F60.00
G01 Z-0.8000
G01 F70.00
G01 X42.7147 Y-65.3928
G01 X42.6989 Y-65.4996
G01 X42.6726 Y-65.6043
G01 X42.6363 Y-65.7060
G01 X42.5901 Y-65.8035
G01 X42.5346 Y-65.8961
G01 X42.4703 Y-65.9828
G01 X42.3978 Y-66.0628
G01 X42.3178 Y-66.1353
G01 X42.2311 Y-66.1996
G01 X42.1385 Y-66.2551
G01 X42.0410 Y-66.3013
G01 X41.9393 Y-66.3376
G01 X41.8346 Y-66.3639
G01 X41.7278 Y-66.3797
G01 X41.6200 Y-66.3850
G01 X41.5122 Y-66.3797
G01 X41.4054 Y-66.3639
G01 X41.3007 Y-66.3376
G01 X41.1990 Y-66.3013
G01 X41.1015 Y-66.2551
G01 X41.0089 Y-66.1996
G01 X40.9222 Y-66.1353
G01 X40.8422 Y-66.0628
G01 X40.7697 Y-65.9828
G01 X40.7054 Y-65.8961
G01 X40.6499 Y-65.8035
G01 X40.6037 Y-65.7060
G01 X40.5674 Y-65.6043
G01 X40.5411 Y-65.4996
G01 X40.5253 Y-65.3928
G01 X40.5200 Y-65.2850
G01 X40.5253 Y-65.1772
G01 X40.5411 Y-65.0704
G01 X40.5674 Y-64.9657
G01 X40.6037 Y-64.8640
G01 X40.6499 Y-64.7665
G01 X40.7054 Y-64.6739
G01 X40.7697 Y-64.5872
G01 X40.8422 Y-64.5072
G01 X40.9222 Y-64.4347
G01 X41.0089 Y-64.3704
G01 X41.1015 Y-64.3149
G01 X41.1990 Y-64.2687
G01 X41.3007 Y-64.2324
G01 X41.4054 Y-64.2061
G01 X41.5122 Y-64.1903
G01 X41.6200 Y-64.1850
G01 X41.7278 Y-64.1903
G01 X41.8346 Y-64.2061
G01 X41.9393 Y-64.2324
G01 X42.0410 Y-64.2687
G01 X42.1385 Y-64.3149
G01 X42.2311 Y-64.3704
G01 X42.3178 Y-64.4347
G01 X42.3978 Y-64.5072
G01 X42.4703 Y-64.5872
G01 X42.5346 Y-64.6739
G01 X42.5901 Y-64.7665
G01 X42.6363 Y-64.8640
G01 X42.6726 Y-64.9657
G01 X42.6989 Y-65.0704
G01 X42.7147 Y-65.1772
G01 X42.7200 Y-65.2850
G00 X42.7200 Y-65.2850
G01 F60.00
G01 Z-1.2000
G01 F70.00
G01 X42.7147 Y-65.3928
G01 X42.6989 Y-65.4996
G01 X42.6726 Y-65.6043
G01 X42.6363 Y-65.7060
G01 X42.5901 Y-65.8035
G01 X42.5346 Y-65.8961
G01 X42.4703 Y-65.9828
G01 X42.3978 Y-66.0628
G01 X42.3178 Y-66.1353
G01 X42.2311 Y-66.1996
G01 X42.1385 Y-66.2551
G01 X42.0410 Y-66.3013
G01 X41.9393 Y-66.3376
G01 X41.8346 Y-66.3639
G01 X41.7278 Y-66.3797
G01 X41.6200 Y-66.3850
G01 X41.5122 Y-66.3797
G01 X41.4054 Y-66.3639
G01 X41.3007 Y-66.3376
G01 X41.1990 Y-66.3013
G01 X41.1015 Y-66.2551
G01 X41.0089 Y-66.1996
G01 X40.9222 Y-66.1353
G01 X40.8422 Y-66.0628
G01 X40.7697 Y-65.9828
G01 X40.7054 Y-65.8961
G01 X40.6499 Y-65.8035
G01 X40.6037 Y-65.7060
G01 X40.5674 Y-65.6043
G01 X40.5411 Y-65.4996
G01 X40.5253 Y-65.3928
G01 X40.5200 Y-65.2850
G01 X40.5253 Y-65.1772
G01 X40.5411 Y-65.0704
G01 X40.5674 Y-64.9657
G01 X40.6037 Y-64.8640
G01 X40.6499 Y-64.7665
G01 X40.7054 Y-64.6739
G01 X40.7697 Y-64.5872
G01 X40.8422 Y-64.5072
G01 X40.9222 Y-64.4347
G01 X41.0089 Y-64.3704
G01 X41.1015 Y-64.3149
G01 X41.1990 Y-64.2687
G01 X41.3007 Y-64.2324
G01 X41.4054 Y-64.2061
G01 X41.5122 Y-64.1903
G01 X41.6200 Y-64.1850
G01 X41.7278 Y-64.1903
G01 X41.8346 Y-64.2061
G01 X41.9393 Y-64.2324
G01 X42.0410 Y-64.2687
G01 X42.1385 Y-64.3149
G01 X42.2311 Y-64.3704
G01 X42.3178 Y-64.4347
G01 X42.3978 Y-64.5072
G01 X42.4703 Y-64.5872
G01 X42.5346 Y-64.6739
G01 X42.5901 Y-64.7665
G01 X42.6363 Y-64.8640
G01 X42.6726 Y-64.9657
G01 X42.6989 Y-65.0704
G01 X42.7147 Y-65.1772
G01 X42.7200 Y-65.2850
G00 X42.7200 Y-65.2850
G01 F60.00
G01 Z-1.6000
G01 F70.00
G01 X42.7147 Y-65.3928
G01 X42.6989 Y-65.4996
G01 X42.6726 Y-65.6043
G01 X42.6363 Y-65.7060
G01 X42.5901 Y-65.8035
G01 X42.5346 Y-65.8961
G01 X42.4703 Y-65.9828
G01 X42.3978 Y-66.0628
G01 X42.3178 Y-66.1353
G01 X42.2311 Y-66.1996
G01 X42.1385 Y-66.2551
G01 X42.0410 Y-66.3013
G01 X41.9393 Y-66.3376
G01 X41.8346 Y-66.3639
G01 X41.7278 Y-66.3797
G01 X41.6200 Y-66.3850
G01 X41.5122 Y-66.3797
G01 X41.4054 Y-66.3639
G01 X41.3007 Y-66.3376
G01 X41.1990 Y-66.3013
G01 X41.1015 Y-66.2551
G01 X41.0089 Y-66.1996
G01 X40.9222 Y-66.1353
G01 X40.8422 Y-66.0628
G01 X40.7697 Y-65.9828
G01 X40.7054 Y-65.8961
G01 X40.6499 Y-65.8035
G01 X40.6037 Y-65.7060
G01 X40.5674 Y-65.6043
G01 X40.5411 Y-65.4996
G01 X40.5253 Y-65.3928
G01 X40.5200 Y-65.2850
G01 X40.5253 Y-65.1772
G01 X40.5411 Y-65.0704
G01 X40.5674 Y-64.9657
G01 X40.6037 Y-64.8640
G01 X40.6499 Y-64.7665
G01 X40.7054 Y-64.6739
G01 X40.7697 Y-64.5872
G01 X40.8422 Y-64.5072
G01 X40.9222 Y-64.4347
G01 X41.0089 Y-64.3704
G01 X41.1015 Y-64.3149
G01 X41.1990 Y-64.2687
G01 X41.3007 Y-64.2324
G01 X41.4054 Y-64.2061
G01 X41.5122 Y-64.1903
G01 X41.6200 Y-64.1850
G01 X41.7278 Y-64.1903
G01 X41.8346 Y-64.2061
G01 X41.9393 Y-64.2324
G01 X42.0410 Y-64.2687
G01 X42.1385 Y-64.3149
G01 X42.2311 Y-64.3704
G01 X42.3178 Y-64.4347
G01 X42.3978 Y-64.5072
G01 X42.4703 Y-64.5872
G01 X42.5346 Y-64.6739
G01 X42.5901 Y-64.7665
G01 X42.6363 Y-64.8640
G01 X42.6726 Y-64.9657
G01 X42.6989 Y-65.0704
G01 X42.7147 Y-65.1772
G01 X42.7200 Y-65.2850
G00 X42.7200 Y-65.2850
G01 F60.00
G01 Z-2.0000
G01 F70.00
G01 X42.7147 Y-65.3928
G01 X42.6989 Y-65.4996
G01 X42.6726 Y-65.6043
G01 X42.6363 Y-65.7060
G01 X42.5901 Y-65.8035
G01 X42.5346 Y-65.8961
G01 X42.4703 Y-65.9828
G01 X42.3978 Y-66.0628
G01 X42.3178 Y-66.1353
G01 X42.2311 Y-66.1996
G01 X42.1385 Y-66.2551
G01 X42.0410 Y-66.3013
G01 X41.9393 Y-66.3376
G01 X41.8346 Y-66.3639
G01 X41.7278 Y-66.3797
G01 X41.6200 Y-66.3850
G01 X41.5122 Y-66.3797
G01 X41.4054 Y-66.3639
G01 X41.3007 Y-66.3376
G01 X41.1990 Y-66.3013
G01 X41.1015 Y-66.2551
G01 X41.0089 Y-66.1996
G01 X40.9222 Y-66.1353
G01 X40.8422 Y-66.0628
G01 X40.7697 Y-65.9828
G01 X40.7054 Y-65.8961
G01 X40.6499 Y-65.8035
G01 X40.6037 Y-65.7060
G01 X40.5674 Y-65.6043
G01 X40.5411 Y-65.4996
G01 X40.5253 Y-65.3928
G01 X40.5200 Y-65.2850
G01 X40.5253 Y-65.1772
G01 X40.5411 Y-65.0704
G01 X40.5674 Y-64.9657
G01 X40.6037 Y-64.8640
G01 X40.6499 Y-64.7665
G01 X40.7054 Y-64.6739
G01 X40.7697 Y-64.5872
G01 X40.8422 Y-64.5072
G01 X40.9222 Y-64.4347
G01 X41.0089 Y-64.3704
G01 X41.1015 Y-64.3149
G01 X41.1990 Y-64.2687
G01 X41.3007 Y-64.2324
G01 X41.4054 Y-64.2061
G01 X41.5122 Y-64.1903
G01 X41.6200 Y-64.1850
G01 X41.7278 Y-64.1903
G01 X41.8346 Y-64.2061
G01 X41.9393 Y-64.2324
G01 X42.0410 Y-64.2687
G01 X42.1385 Y-64.3149
G01 X42.2311 Y-64.3704
G01 X42.3178 Y-64.4347
G01 X42.3978 Y-64.5072
G01 X42.4703 Y-64.5872
G01 X42.5346 Y-64.6739
G01 X42.5901 Y-64.7665
G01 X42.6363 Y-64.8640
G01 X42.6726 Y-64.9657
G01 X42.6989 Y-65.0704
G01 X42.7147 Y-65.1772
G01 X42.7200 Y-65.2850
G00 Z2.0000
G00 X86.5350 Y-66.5550
G01 F60.00
G01 Z-0.4000
G01 F70.00
G01 X86.5297 Y-66.6628
G01 X86.5139 Y-66.7696
G01 X86.4876 Y-66.8743
G01 X86.4513 Y-66.9760
G01 X86.4051 Y-67.0735
G01 X86.3496 Y-67.1661
G01 X86.2853 Y-67.2528
G01 X86.2128 Y-67.3328
G01 X86.1328 Y-67.4053
G01 X86.0461 Y-67.4696
G01 X85.9535 Y-67.5251
G01 X85.8560 Y-67.5713
G01 X85.7543 Y-67.6076
G01 X85.6496 Y-67.6339
G01 X85.5428 Y-67.6497
G01 X85.4350 Y-67.6550
G01 X85.3272 Y-67.6497
G01 X85.2204 Y-67.6339
G01 X85.1157 Y-67.6076
G01 X85.0140 Y-67.5713
G01 X84.9165 Y-67.5251
G01 X84.8239 Y-67.4696
G01 X84.7372 Y-67.4053
G01 X84.6572 Y-67.3328
G01 X84.5847 Y-67.2528
G01 X84.5204 Y-67.1661
G01 X84.4649 Y-67.0735
G01 X84.4187 Y-66.9760
G01 X84.3824 Y-66.8743
G01 X84.3561 Y-66.7696
G01 X84.3403 Y-66.6628
G01 X84.3350 Y-66.5550
G01 X84.3403 Y-66.4472
G01 X84.3561 Y-66.3404
G01 X84.3824 Y-66.2357
G01 X84.4187 Y-66.1340
G01 X84.4649 Y-66.0365
G01 X84.5204 Y-65.9439
G01 X84.5847 Y-65.8572
G01 X84.6572 Y-65.7772
G01 X84.7372 Y-65.7047
G01 X84.8239 Y-65.6404
G01 X84.9165 Y-65.5849
G01 X85.0140 Y-65.5387
G01 X85.1157 Y-65.5024
G01 X85.2204 Y-65.4761
G01 X85.3272 Y-65.4603
G01 X85.4350 Y-65.4550
G01 X85.5428 Y-65.4603
G01 X85.6496 Y-65.4761
G01 X85.7543 Y-65.5024
G01 X85.8560 Y-65.5387
G01 X85.9535 Y-65.5849
G01 X86.0461 Y-65.6404
G01 X86.1328 Y-65.7047
G01 X86.2128 Y-65.7772
G01 X86.2853 Y-65.8572
G01 X86.3496 Y-65.9439
G01 X86.4051 Y-66.0365
G01 X86.4513 Y-66.1340
G01 X86.4876 Y-66.2357
G01 X86.5139 Y-66.3404
G01 X86.5297 Y-66.4472
G01 X86.5350 Y-66.5550
G00 X86.5350 Y-66.5550
G01 F60.00
G01 Z-0.8000
G01 F70.00
G01 X86.5297 Y-66.6628
G01 X86.5139 Y-66.7696
G01 X86.4876 Y-66.8743
G01 X86.4513 Y-66.9760
G01 X86.4051 Y-67.0735
G01 X86.3496 Y-67.1661
G01 X86.2853 Y-67.2528
G01 X86.2128 Y-67.3328
G01 X86.1328 Y-67.4053
G01 X86.0461 Y-67.4696
G01 X85.9535 Y-67.5251
G01 X85.8560 Y-67.5713
G01 X85.7543 Y-67.6076
G01 X85.6496 Y-67.6339
G01 X85.5428 Y-67.6497
G01 X85.4350 Y-67.6550
G01 X85.3272 Y-67.6497
G01 X85.2204 Y-67.6339
G01 X85.1157 Y-67.6076
G01 X85.0140 Y-67.5713
G01 X84.9165 Y-67.5251
G01 X84.8239 Y-67.4696
G01 X84.7372 Y-67.4053
G01 X84.6572 Y-67.3328
G01 X84.5847 Y-67.2528
G01 X84.5204 Y-67.1661
G01 X84.4649 Y-67.0735
G01 X84.4187 Y-66.9760
G01 X84.3824 Y-66.8743
G01 X84.3561 Y-66.7696
G01 X84.3403 Y-66.6628
G01 X84.3350 Y-66.5550
G01 X84.3403 Y-66.4472
G01 X84.3561 Y-66.3404
G01 X84.3824 Y-66.2357
G01 X84.4187 Y-66.1340
G01 X84.4649 Y-66.0365
G01 X84.5204 Y-65.9439
G01 X84.5847 Y-65.8572
G01 X84.6572 Y-65.7772
G01 X84.7372 Y-65.7047
G01 X84.8239 Y-65.6404
G01 X84.9165 Y-65.5849
G01 X85.0140 Y-65.5387
G01 X85.1157 Y-65.5024
G01 X85.2204 Y-65.4761
G01 X85.3272 Y-65.4603
G01 X85.4350 Y-65.4550
G01 X85.5428 Y-65.4603
G01 X85.6496 Y-65.4761
G01 X85.7543 Y-65.5024
G01 X85.8560 Y-65.5387
G01 X85.9535 Y-65.5849
G01 X86.0461 Y-65.6404
G01 X86.1328 Y-65.7047
G01 X86.2128 Y-65.7772
G01 X86.2853 Y-65.8572
G01 X86.3496 Y-65.9439
G01 X86.4051 Y-66.0365
G01 X86.4513 Y-66.1340
G01 X86.4876 Y-66.2357
G01 X86.5139 Y-66.3404
G01 X86.5297 Y-66.4472
G01 X86.5350 Y-66.5550
G00 X86.5350 Y-66.5550
G01 F60.00
G01 Z-1.2000
G01 F70.00
G01 X86.5297 Y-66.6628
G01 X86.5139 Y-66.7696
G01 X86.4876 Y-66.8743
G01 X86.4513 Y-66.9760
G01 X86.4051 Y-67.0735
G01 X86.3496 Y-67.1661
G01 X86.2853 Y-67.2528
G01 X86.2128 Y-67.3328
G01 X86.1328 Y-67.4053
G01 X86.0461 Y-67.4696
G01 X85.9535 Y-67.5251
G01 X85.8560 Y-67.5713
G01 X85.7543 Y-67.6076
G01 X85.6496 Y-67.6339
G01 X85.5428 Y-67.6497
G01 X85.4350 Y-67.6550
G01 X85.3272 Y-67.6497
G01 X85.2204 Y-67.6339
G01 X85.1157 Y-67.6076
G01 X85.0140 Y-67.5713
G01 X84.9165 Y-67.5251
G01 X84.8239 Y-67.4696
G01 X84.7372 Y-67.4053
G01 X84.6572 Y-67.3328
G01 X84.5847 Y-67.2528
G01 X84.5204 Y-67.1661
G01 X84.4649 Y-67.0735
G01 X84.4187 Y-66.9760
G01 X84.3824 Y-66.8743
G01 X84.3561 Y-66.7696
G01 X84.3403 Y-66.6628
G01 X84.3350 Y-66.5550
G01 X84.3403 Y-66.4472
G01 X84.3561 Y-66.3404
G01 X84.3824 Y-66.2357
G01 X84.4187 Y-66.1340
G01 X84.4649 Y-66.0365
G01 X84.5204 Y-65.9439
G01 X84.5847 Y-65.8572
G01 X84.6572 Y-65.7772
G01 X84.7372 Y-65.7047
G01 X84.8239 Y-65.6404
G01 X84.9165 Y-65.5849
G01 X85.0140 Y-65.5387
G01 X85.1157 Y-65.5024
G01 X85.2204 Y-65.4761
G01 X85.3272 Y-65.4603
G01 X85.4350 Y-65.4550
G01 X85.5428 Y-65.4603
G01 X85.6496 Y-65.4761
G01 X85.7543 Y-65.5024
G01 X85.8560 Y-65.5387
G01 X85.9535 Y-65.5849
G01 X86.0461 Y-65.6404
G01 X86.1328 Y-65.7047
G01 X86.2128 Y-65.7772
G01 X86.2853 Y-65.8572
G01 X86.3496 Y-65.9439
G01 X86.4051 Y-66.0365
G01 X86.4513 Y-66.1340
G01 X86.4876 Y-66.2357
G01 X86.5139 Y-66.3404
G01 X86.5297 Y-66.4472
G01 X86.5350 Y-66.5550
G00 X86.5350 Y-66.5550
G01 F60.00
G01 Z-1.6000
G01 F70.00
G01 X86.5297 Y-66.6628
G01 X86.5139 Y-66.7696
G01 X86.4876 Y-66.8743
G01 X86.4513 Y-66.9760
G01 X86.4051 Y-67.0735
G01 X86.3496 Y-67.1661
G01 X86.2853 Y-67.2528
G01 X86.2128 Y-67.3328
G01 X86.1328 Y-67.4053
G01 X86.0461 Y-67.4696
G01 X85.9535 Y-67.5251
G01 X85.8560 Y-67.5713
G01 X85.7543 Y-67.6076
G01 X85.6496 Y-67.6339
G01 X85.5428 Y-67.6497
G01 X85.4350 Y-67.6550
G01 X85.3272 Y-67.6497
G01 X85.2204 Y-67.6339
G01 X85.1157 Y-67.6076
G01 X85.0140 Y-67.5713
G01 X84.9165 Y-67.5251
G01 X84.8239 Y-67.4696
G01 X84.7372 Y-67.4053
G01 X84.6572 Y-67.3328
G01 X84.5847 Y-67.2528
G01 X84.5204 Y-67.1661
G01 X84.4649 Y-67.0735
G01 X84.4187 Y-66.9760
G01 X84.3824 Y-66.8743
G01 X84.3561 Y-66.7696
G01 X84.3403 Y-66.6628
G01 X84.3350 Y-66.5550
G01 X84.3403 Y-66.4472
G01 X84.3561 Y-66.3404
G01 X84.3824 Y-66.2357
G01 X84.4187 Y-66.1340
G01 X84.4649 Y-66.0365
G01 X84.5204 Y-65.9439
G01 X84.5847 Y-65.8572
G01 X84.6572 Y-65.7772
G01 X84.7372 Y-65.7047
G01 X84.8239 Y-65.6404
G01 X84.9165 Y-65.5849
G01 X85.0140 Y-65.5387
G01 X85.1157 Y-65.5024
G01 X85.2204 Y-65.4761
G01 X85.3272 Y-65.4603
G01 X85.4350 Y-65.4550
G01 X85.5428 Y-65.4603
G01 X85.6496 Y-65.4761
G01 X85.7543 Y-65.5024
G01 X85.8560 Y-65.5387
G01 X85.9535 Y-65.5849
G01 X86.0461 Y-65.6404
G01 X86.1328 Y-65.7047
G01 X86.2128 Y-65.7772
G01 X86.2853 Y-65.8572
G01 X86.3496 Y-65.9439
G01 X86.4051 Y-66.0365
G01 X86.4513 Y-66.1340
G01 X86.4876 Y-66.2357
G01 X86.5139 Y-66.3404
G01 X86.5297 Y-66.4472
G01 X86.5350 Y-66.5550
G00 X86.5350 Y-66.5550
G01 F60.00
G01 Z-2.0000
G01 F70.00
G01 X86.5297 Y-66.6628
G01 X86.5139 Y-66.7696
G01 X86.4876 Y-66.8743
G01 X86.4513 Y-66.9760
G01 X86.4051 Y-67.0735
G01 X86.3496 Y-67.1661
G01 X86.2853 Y-67.2528
G01 X86.2128 Y-67.3328
G01 X86.1328 Y-67.4053
G01 X86.0461 Y-67.4696
G01 X85.9535 Y-67.5251
G01 X85.8560 Y-67.5713
G01 X85.7543 Y-67.6076
G01 X85.6496 Y-67.6339
G01 X85.5428 Y-67.6497
G01 X85.4350 Y-67.6550
G01 X85.3272 Y-67.6497
G01 X85.2204 Y-67.6339
G01 X85.1157 Y-67.6076
G01 X85.0140 Y-67.5713
G01 X84.9165 Y-67.5251
G01 X84.8239 Y-67.4696
G01 X84.7372 Y-67.4053
G01 X84.6572 Y-67.3328
G01 X84.5847 Y-67.2528
G01 X84.5204 Y-67.1661
G01 X84.4649 Y-67.0735
G01 X84.4187 Y-66.9760
G01 X84.3824 Y-66.8743
G01 X84.3561 Y-66.7696
G01 X84.3403 Y-66.6628
G01 X84.3350 Y-66.5550
G01 X84.3403 Y-66.4472
G01 X84.3561 Y-66.3404
G01 X84.3824 Y-66.2357
G01 X84.4187 Y-66.1340
G01 X84.4649 Y-66.0365
G01 X84.5204 Y-65.9439
G01 X84.5847 Y-65.8572
G01 X84.6572 Y-65.7772
G01 X84.7372 Y-65.7047
G01 X84.8239 Y-65.6404
G01 X84.9165 Y-65.5849
G01 X85.0140 Y-65.5387
G01 X85.1157 Y-65.5024
G01 X85.2204 Y-65.4761
G01 X85.3272 Y-65.4603
G01 X85.4350 Y-65.4550
G01 X85.5428 Y-65.4603
G01 X85.6496 Y-65.4761
G01 X85.7543 Y-65.5024
G01 X85.8560 Y-65.5387
G01 X85.9535 Y-65.5849
G01 X86.0461 Y-65.6404
G01 X86.1328 Y-65.7047
G01 X86.2128 Y-65.7772
G01 X86.2853 Y-65.8572
G01 X86.3496 Y-65.9439
G01 X86.4051 Y-66.0365
G01 X86.4513 Y-66.1340
G01 X86.4876 Y-66.2357
G01 X86.5139 Y-66.3404
G01 X86.5297 Y-66.4472
G01 X86.5350 Y-66.5550
G00 Z2.0000
G00 X89.0750 Y-11.3100
G01 F60.00
G01 Z-0.4000
G01 F70.00
G01 X89.0697 Y-11.4178
G01 X89.0539 Y-11.5246
G01 X89.0276 Y-11.6293
G01 X88.9913 Y-11.7310
G01 X88.9451 Y-11.8285
G01 X88.8896 Y-11.9211
G01 X88.8253 Y-12.0078
G01 X88.7528 Y-12.0878
G01 X88.6728 Y-12.1603
G01 X88.5861 Y-12.2246
G01 X88.4935 Y-12.2801
G01 X88.3960 Y-12.3263
G01 X88.2943 Y-12.3626
G01 X88.1896 Y-12.3889
G01 X88.0828 Y-12.4047
G01 X87.9750 Y-12.4100
G01 X87.8672 Y-12.4047
G01 X87.7604 Y-12.3889
G01 X87.6557 Y-12.3626
G01 X87.5540 Y-12.3263
G01 X87.4565 Y-12.2801
G01 X87.3639 Y-12.2246
G01 X87.2772 Y-12.1603
G01 X87.1972 Y-12.0878
G01 X87.1247 Y-12.0078
G01 X87.0604 Y-11.9211
G01 X87.0049 Y-11.8285
G01 X86.9587 Y-11.7310
G01 X86.9224 Y-11.6293
G01 X86.8961 Y-11.5246
G01 X86.8803 Y-11.4178
G01 X86.8750 Y-11.3100
G01 X86.8803 Y-11.2022
G01 X86.8961 Y-11.0954
G01 X86.9224 Y-10.9907
G01 X86.9587 Y-10.8890
G01 X87.0049 Y-10.7915
G01 X87.0604 Y-10.6989
G01 X87.1247 Y-10.6122
G01 X87.1972 Y-10.5322
G01 X87.2772 Y-10.4597
G01 X87.3639 Y-10.3954
G01 X87.4565 Y-10.3399
G01 X87.5540 Y-10.2937
G01 X87.6557 Y-10.2574
G01 X87.7604 Y-10.2311
G01 X87.8672 Y-10.2153
G01 X87.9750 Y-10.2100
G01 X88.0828 Y-10.2153
G01 X88.1896 Y-10.2311
G01 X88.2943 Y-10.2574
G01 X88.3960 Y-10.2937
G01 X88.4935 Y-10.3399
G01 X88.5861 Y-10.3954
G01 X88.6728 Y-10.4597
G01 X88.7528 Y-10.5322
G01 X88.8253 Y-10.6122
G01 X88.8896 Y-10.6989
G01 X88.9451 Y-10.7915
G01 X88.9913 Y-10.8890
G01 X89.0276 Y-10.9907
G01 X89.0539 Y-11.0954
G01 X89.0697 Y-11.2022
G01 X89.0750 Y-11.3100
G00 X89.0750 Y-11.3100
G01 F60.00
G01 Z-0.8000
G01 F70.00
G01 X89.0697 Y-11.4178
G01 X89.0539 Y-11.5246
G01 X89.0276 Y-11.6293
G01 X88.9913 Y-11.7310
G01 X88.9451 Y-11.8285
G01 X88.8896 Y-11.9211
G01 X88.8253 Y-12.0078
G01 X88.7528 Y-12.0878
G01 X88.6728 Y-12.1603
G01 X88.5861 Y-12.2246
G01 X88.4935 Y-12.2801
G01 X88.3960 Y-12.3263
G01 X88.2943 Y-12.3626
G01 X88.1896 Y-12.3889
G01 X88.0828 Y-12.4047
G01 X87.9750 Y-12.4100
G01 X87.8672 Y-12.4047
G01 X87.7604 Y-12.3889
G01 X87.6557 Y-12.3626
G01 X87.5540 Y-12.3263
G01 X87.4565 Y-12.2801
G01 X87.3639 Y-12.2246
G01 X87.2772 Y-12.1603
G01 X87.1972 Y-12.0878
G01 X87.1247 Y-12.0078
G01 X87.0604 Y-11.9211
G01 X87.0049 Y-11.8285
G01 X86.9587 Y-11.7310
G01 X86.9224 Y-11.6293
G01 X86.8961 Y-11.5246
G01 X86.8803 Y-11.4178
G01 X86.8750 Y-11.3100
G01 X86.8803 Y-11.2022
G01 X86.8961 Y-11.0954
G01 X86.9224 Y-10.9907
G01 X86.9587 Y-10.8890
G01 X87.0049 Y-10.7915
G01 X87.0604 Y-10.6989
G01 X87.1247 Y-10.6122
G01 X87.1972 Y-10.5322
G01 X87.2772 Y-10.4597
G01 X87.3639 Y-10.3954
G01 X87.4565 Y-10.3399
G01 X87.5540 Y-10.2937
G01 X87.6557 Y-10.2574
G01 X87.7604 Y-10.2311
G01 X87.8672 Y-10.2153
G01 X87.9750 Y-10.2100
G01 X88.0828 Y-10.2153
G01 X88.1896 Y-10.2311
G01 X88.2943 Y-10.2574
G01 X88.3960 Y-10.2937
G01 X88.4935 Y-10.3399
G01 X88.5861 Y-10.3954
G01 X88.6728 Y-10.4597
G01 X88.7528 Y-10.5322
G01 X88.8253 Y-10.6122
G01 X88.8896 Y-10.6989
G01 X88.9451 Y-10.7915
G01 X88.9913 Y-10.8890
G01 X89.0276 Y-10.9907
G01 X89.0539 Y-11.0954
G01 X89.0697 Y-11.2022
G01 X89.0750 Y-11.3100
G00 X89.0750 Y-11.3100
G01 F60.00
G01 Z-1.2000
G01 F70.00
G01 X89.0697 Y-11.4178
G01 X89.0539 Y-11.5246
G01 X89.0276 Y-11.6293
G01 X88.9913 Y-11.7310
G01 X88.9451 Y-11.8285
G01 X88.8896 Y-11.9211
G01 X88.8253 Y-12.0078
G01 X88.7528 Y-12.0878
G01 X88.6728 Y-12.1603
G01 X88.5861 Y-12.2246
G01 X88.4935 Y-12.2801
G01 X88.3960 Y-12.3263
G01 X88.2943 Y-12.3626
G01 X88.1896 Y-12.3889
G01 X88.0828 Y-12.4047
G01 X87.9750 Y-12.4100
G01 X87.8672 Y-12.4047
G01 X87.7604 Y-12.3889
G01 X87.6557 Y-12.3626
G01 X87.5540 Y-12.3263
G01 X87.4565 Y-12.2801
G01 X87.3639 Y-12.2246
G01 X87.2772 Y-12.1603
G01 X87.1972 Y-12.0878
G01 X87.1247 Y-12.0078
G01 X87.0604 Y-11.9211
G01 X87.0049 Y-11.8285
G01 X86.9587 Y-11.7310
G01 X86.9224 Y-11.6293
G01 X86.8961 Y-11.5246
G01 X86.8803 Y-11.4178
G01 X86.8750 Y-11.3100
G01 X86.8803 Y-11.2022
G01 X86.8961 Y-11.0954
G01 X86.9224 Y-10.9907
G01 X86.9587 Y-10.8890
G01 X87.0049 Y-10.7915
G01 X87.0604 Y-10.6989
G01 X87.1247 Y-10.6122
G01 X87.1972 Y-10.5322
G01 X87.2772 Y-10.4597
G01 X87.3639 Y-10.3954
G01 X87.4565 Y-10.3399
G01 X87.5540 Y-10.2937
G01 X87.6557 Y-10.2574
G01 X87.7604 Y-10.2311
G01 X87.8672 Y-10.2153
G01 X87.9750 Y-10.2100
G01 X88.0828 Y-10.2153
G01 X88.1896 Y-10.2311
G01 X88.2943 Y-10.2574
G01 X88.3960 Y-10.2937
G01 X88.4935 Y-10.3399
G01 X88.5861 Y-10.3954
G01 X88.6728 Y-10.4597
G01 X88.7528 Y-10.5322
G01 X88.8253 Y-10.6122
G01 X88.8896 Y-10.6989
G01 X88.9451 Y-10.7915
G01 X88.9913 Y-10.8890
G01 X89.0276 Y-10.9907
G01 X89.0539 Y-11.0954
G01 X89.0697 Y-11.2022
G01 X89.0750 Y-11.3100
G00 X89.0750 Y-11.3100
G01 F60.00
G01 Z-1.6000
G01 F70.00
G01 X89.0697 Y-11.4178
G01 X89.0539 Y-11.5246
G01 X89.0276 Y-11.6293
G01 X88.9913 Y-11.7310
G01 X88.9451 Y-11.8285
G01 X88.8896 Y-11.9211
G01 X88.8253 Y-12.0078
G01 X88.7528 Y-12.0878
G01 X88.6728 Y-12.1603
G01 X88.5861 Y-12.2246
G01 X88.4935 Y-12.2801
G01 X88.3960 Y-12.3263
G01 X88.2943 Y-12.3626
G01 X88.1896 Y-12.3889
G01 X88.0828 Y-12.4047
G01 X87.9750 Y-12.4100
G01 X87.8672 Y-12.4047
G01 X87.7604 Y-12.3889
G01 X87.6557 Y-12.3626
G01 X87.5540 Y-12.3263
G01 X87.4565 Y-12.2801
G01 X87.3639 Y-12.2246
G01 X87.2772 Y-12.1603
G01 X87.1972 Y-12.0878
G01 X87.1247 Y-12.0078
G01 X87.0604 Y-11.9211
G01 X87.0049 Y-11.8285
G01 X86.9587 Y-11.7310
G01 X86.9224 Y-11.6293
G01 X86.8961 Y-11.5246
G01 X86.8803 Y-11.4178
G01 X86.8750 Y-11.3100
G01 X86.8803 Y-11.2022
G01 X86.8961 Y-11.0954
G01 X86.9224 Y-10.9907
G01 X86.9587 Y-10.8890
G01 X87.0049 Y-10.7915
G01 X87.0604 Y-10.6989
G01 X87.1247 Y-10.6122
G01 X87.1972 Y-10.5322
G01 X87.2772 Y-10.4597
G01 X87.3639 Y-10.3954
G01 X87.4565 Y-10.3399
G01 X87.5540 Y-10.2937
G01 X87.6557 Y-10.2574
G01 X87.7604 Y-10.2311
G01 X87.8672 Y-10.2153
G01 X87.9750 Y-10.2100
G01 X88.0828 Y-10.2153
G01 X88.1896 Y-10.2311
G01 X88.2943 Y-10.2574
G01 X88.3960 Y-10.2937
G01 X88.4935 Y-10.3399
G01 X88.5861 Y-10.3954
G01 X88.6728 Y-10.4597
G01 X88.7528 Y-10.5322
G01 X88.8253 Y-10.6122
G01 X88.8896 Y-10.6989
G01 X88.9451 Y-10.7915
G01 X88.9913 Y-10.8890
G01 X89.0276 Y-10.9907
G01 X89.0539 Y-11.0954
G01 X89.0697 Y-11.2022
G01 X89.0750 Y-11.3100
G00 X89.0750 Y-11.3100
G01 F60.00
G01 Z-2.0000
G01 F70.00
G01 X89.0697 Y-11.4178
G01 X89.0539 Y-11.5246
G01 X89.0276 Y-11.6293
G01 X88.9913 Y-11.7310
G01 X88.9451 Y-11.8285
G01 X88.8896 Y-11.9211
G01 X88.8253 Y-12.0078
G01 X88.7528 Y-12.0878
G01 X88.6728 Y-12.1603
G01 X88.5861 Y-12.2246
G01 X88.4935 Y-12.2801
G01 X88.3960 Y-12.3263
G01 X88.2943 Y-12.3626
G01 X88.1896 Y-12.3889
G01 X88.0828 Y-12.4047
G01 X87.9750 Y-12.4100
G01 X87.8672 Y-12.4047
G01 X87.7604 Y-12.3889
G01 X87.6557 Y-12.3626
G01 X87.5540 Y-12.3263
G01 X87.4565 Y-12.2801
G01 X87.3639 Y-12.2246
G01 X87.2772 Y-12.1603
G01 X87.1972 Y-12.0878
G01 X87.1247 Y-12.0078
G01 X87.0604 Y-11.9211
G01 X87.0049 Y-11.8285
G01 X86.9587 Y-11.7310
G01 X86.9224 Y-11.6293
G01 X86.8961 Y-11.5246
G01 X86.8803 Y-11.4178
G01 X86.8750 Y-11.3100
G01 X86.8803 Y-11.2022
G01 X86.8961 Y-11.0954
G01 X86.9224 Y-10.9907
G01 X86.9587 Y-10.8890
G01 X87.0049 Y-10.7915
G01 X87.0604 Y-10.6989
G01 X87.1247 Y-10.6122
G01 X87.1972 Y-10.5322
G01 X87.2772 Y-10.4597
G01 X87.3639 Y-10.3954
G01 X87.4565 Y-10.3399
G01 X87.5540 Y-10.2937
G01 X87.6557 Y-10.2574
G01 X87.7604 Y-10.2311
G01 X87.8672 Y-10.2153
G01 X87.9750 Y-10.2100
G01 X88.0828 Y-10.2153
G01 X88.1896 Y-10.2311
G01 X88.2943 Y-10.2574
G01 X88.3960 Y-10.2937
G01 X88.4935 Y-10.3399
G01 X88.5861 Y-10.3954
G01 X88.6728 Y-10.4597
G01 X88.7528 Y-10.5322
G01 X88.8253 Y-10.6122
G01 X88.8896 Y-10.6989
G01 X88.9451 Y-10.7915
G01 X88.9913 Y-10.8890
G01 X89.0276 Y-10.9907
G01 X89.0539 Y-11.0954
G01 X89.0697 Y-11.2022
G01 X89.0750 Y-11.3100
G00 Z2.0000
M05
G00 Z2.0000
G00 Z15.00


