(G-CODE GENERATED BY FLATCAM v8.994 - www.flatcam.org - Version Date: 2020/11/7)

(Name: Placa1.drl_mill_cnc)
(Type: G-code from Geometry)
(Units: MM)

(Created on Saturday, 20 May 2023 at 12:36)

(This preprocessor is the default preprocessor used by FlatCAM.)
(It is made to work with MACH3 compatible motion controllers.)

(TOOL DIAMETER: 1.0 mm)
(Feedrate_XY: 80.0 mm/min)
(Feedrate_Z: 60.0 mm/min)
(Feedrate rapids 1500.0 mm/min)

(Z_Cut: -2.0 mm)
(DepthPerCut: 0.4 mm <=>5 passes)
(Z_Move: 2.0 mm)
(Z Start: None mm)
(Z End: 15.0 mm)
(X,Y End: None mm)
(Steps per circle: 64)
(Preprocessor Geometry: default)

(X range:    4.4950 ...   15.2450  mm)
(Y range:   -6.1000 ...   -2.5500  mm)

(Spindle Speed: 1500.0 RPM)
G21
G90
G94

G01 F80.00

M5
G00 Z15.0000
G00 X0.0000 Y0.0000
T1
M6    
(MSG, Change to Tool Dia = 1.0000)
M0
G00 Z15.0000

M03 S1500.0
G01 F80.00
G00 X8.0450 Y-4.3250
G01 F60.00
G01 Z-0.4000
G01 F80.00
G01 X8.0365 Y-4.4990
G01 X8.0109 Y-4.6713
G01 X7.9686 Y-4.8403
G01 X7.9099 Y-5.0043
G01 X7.8354 Y-5.1617
G01 X7.7459 Y-5.3111
G01 X7.6421 Y-5.4510
G01 X7.5251 Y-5.5801
G01 X7.3960 Y-5.6971
G01 X7.2561 Y-5.8009
G01 X7.1067 Y-5.8904
G01 X6.9493 Y-5.9649
G01 X6.7853 Y-6.0236
G01 X6.6163 Y-6.0659
G01 X6.4440 Y-6.0915
G01 X6.2700 Y-6.1000
G01 X6.0960 Y-6.0915
G01 X5.9237 Y-6.0659
G01 X5.7547 Y-6.0236
G01 X5.5907 Y-5.9649
G01 X5.4333 Y-5.8904
G01 X5.2839 Y-5.8009
G01 X5.1440 Y-5.6971
G01 X5.0149 Y-5.5801
G01 X4.8979 Y-5.4510
G01 X4.7941 Y-5.3111
G01 X4.7046 Y-5.1617
G01 X4.6301 Y-5.0043
G01 X4.5714 Y-4.8403
G01 X4.5291 Y-4.6713
G01 X4.5035 Y-4.4990
G01 X4.4950 Y-4.3250
G01 X4.5035 Y-4.1510
G01 X4.5291 Y-3.9787
G01 X4.5714 Y-3.8097
G01 X4.6301 Y-3.6457
G01 X4.7046 Y-3.4883
G01 X4.7941 Y-3.3389
G01 X4.8979 Y-3.1990
G01 X5.0149 Y-3.0699
G01 X5.1440 Y-2.9529
G01 X5.2839 Y-2.8491
G01 X5.4333 Y-2.7596
G01 X5.5907 Y-2.6851
G01 X5.7547 Y-2.6264
G01 X5.9237 Y-2.5841
G01 X6.0960 Y-2.5585
G01 X6.2700 Y-2.5500
G01 X6.4440 Y-2.5585
G01 X6.6163 Y-2.5841
G01 X6.7853 Y-2.6264
G01 X6.9493 Y-2.6851
G01 X7.1067 Y-2.7596
G01 X7.2561 Y-2.8491
G01 X7.3960 Y-2.9529
G01 X7.5251 Y-3.0699
G01 X7.6421 Y-3.1990
G01 X7.7459 Y-3.3389
G01 X7.8354 Y-3.4883
G01 X7.9099 Y-3.6457
G01 X7.9686 Y-3.8097
G01 X8.0109 Y-3.9787
G01 X8.0365 Y-4.1510
G01 X8.0450 Y-4.3250
G00 X8.0450 Y-4.3250
G01 F60.00
G01 Z-0.8000
G01 F80.00
G01 X8.0365 Y-4.4990
G01 X8.0109 Y-4.6713
G01 X7.9686 Y-4.8403
G01 X7.9099 Y-5.0043
G01 X7.8354 Y-5.1617
G01 X7.7459 Y-5.3111
G01 X7.6421 Y-5.4510
G01 X7.5251 Y-5.5801
G01 X7.3960 Y-5.6971
G01 X7.2561 Y-5.8009
G01 X7.1067 Y-5.8904
G01 X6.9493 Y-5.9649
G01 X6.7853 Y-6.0236
G01 X6.6163 Y-6.0659
G01 X6.4440 Y-6.0915
G01 X6.2700 Y-6.1000
G01 X6.0960 Y-6.0915
G01 X5.9237 Y-6.0659
G01 X5.7547 Y-6.0236
G01 X5.5907 Y-5.9649
G01 X5.4333 Y-5.8904
G01 X5.2839 Y-5.8009
G01 X5.1440 Y-5.6971
G01 X5.0149 Y-5.5801
G01 X4.8979 Y-5.4510
G01 X4.7941 Y-5.3111
G01 X4.7046 Y-5.1617
G01 X4.6301 Y-5.0043
G01 X4.5714 Y-4.8403
G01 X4.5291 Y-4.6713
G01 X4.5035 Y-4.4990
G01 X4.4950 Y-4.3250
G01 X4.5035 Y-4.1510
G01 X4.5291 Y-3.9787
G01 X4.5714 Y-3.8097
G01 X4.6301 Y-3.6457
G01 X4.7046 Y-3.4883
G01 X4.7941 Y-3.3389
G01 X4.8979 Y-3.1990
G01 X5.0149 Y-3.0699
G01 X5.1440 Y-2.9529
G01 X5.2839 Y-2.8491
G01 X5.4333 Y-2.7596
G01 X5.5907 Y-2.6851
G01 X5.7547 Y-2.6264
G01 X5.9237 Y-2.5841
G01 X6.0960 Y-2.5585
G01 X6.2700 Y-2.5500
G01 X6.4440 Y-2.5585
G01 X6.6163 Y-2.5841
G01 X6.7853 Y-2.6264
G01 X6.9493 Y-2.6851
G01 X7.1067 Y-2.7596
G01 X7.2561 Y-2.8491
G01 X7.3960 Y-2.9529
G01 X7.5251 Y-3.0699
G01 X7.6421 Y-3.1990
G01 X7.7459 Y-3.3389
G01 X7.8354 Y-3.4883
G01 X7.9099 Y-3.6457
G01 X7.9686 Y-3.8097
G01 X8.0109 Y-3.9787
G01 X8.0365 Y-4.1510
G01 X8.0450 Y-4.3250
G00 X8.0450 Y-4.3250
G01 F60.00
G01 Z-1.2000
G01 F80.00
G01 X8.0365 Y-4.4990
G01 X8.0109 Y-4.6713
G01 X7.9686 Y-4.8403
G01 X7.9099 Y-5.0043
G01 X7.8354 Y-5.1617
G01 X7.7459 Y-5.3111
G01 X7.6421 Y-5.4510
G01 X7.5251 Y-5.5801
G01 X7.3960 Y-5.6971
G01 X7.2561 Y-5.8009
G01 X7.1067 Y-5.8904
G01 X6.9493 Y-5.9649
G01 X6.7853 Y-6.0236
G01 X6.6163 Y-6.0659
G01 X6.4440 Y-6.0915
G01 X6.2700 Y-6.1000
G01 X6.0960 Y-6.0915
G01 X5.9237 Y-6.0659
G01 X5.7547 Y-6.0236
G01 X5.5907 Y-5.9649
G01 X5.4333 Y-5.8904
G01 X5.2839 Y-5.8009
G01 X5.1440 Y-5.6971
G01 X5.0149 Y-5.5801
G01 X4.8979 Y-5.4510
G01 X4.7941 Y-5.3111
G01 X4.7046 Y-5.1617
G01 X4.6301 Y-5.0043
G01 X4.5714 Y-4.8403
G01 X4.5291 Y-4.6713
G01 X4.5035 Y-4.4990
G01 X4.4950 Y-4.3250
G01 X4.5035 Y-4.1510
G01 X4.5291 Y-3.9787
G01 X4.5714 Y-3.8097
G01 X4.6301 Y-3.6457
G01 X4.7046 Y-3.4883
G01 X4.7941 Y-3.3389
G01 X4.8979 Y-3.1990
G01 X5.0149 Y-3.0699
G01 X5.1440 Y-2.9529
G01 X5.2839 Y-2.8491
G01 X5.4333 Y-2.7596
G01 X5.5907 Y-2.6851
G01 X5.7547 Y-2.6264
G01 X5.9237 Y-2.5841
G01 X6.0960 Y-2.5585
G01 X6.2700 Y-2.5500
G01 X6.4440 Y-2.5585
G01 X6.6163 Y-2.5841
G01 X6.7853 Y-2.6264
G01 X6.9493 Y-2.6851
G01 X7.1067 Y-2.7596
G01 X7.2561 Y-2.8491
G01 X7.3960 Y-2.9529
G01 X7.5251 Y-3.0699
G01 X7.6421 Y-3.1990
G01 X7.7459 Y-3.3389
G01 X7.8354 Y-3.4883
G01 X7.9099 Y-3.6457
G01 X7.9686 Y-3.8097
G01 X8.0109 Y-3.9787
G01 X8.0365 Y-4.1510
G01 X8.0450 Y-4.3250
G00 X8.0450 Y-4.3250
G01 F60.00
G01 Z-1.6000
G01 F80.00
G01 X8.0365 Y-4.4990
G01 X8.0109 Y-4.6713
G01 X7.9686 Y-4.8403
G01 X7.9099 Y-5.0043
G01 X7.8354 Y-5.1617
G01 X7.7459 Y-5.3111
G01 X7.6421 Y-5.4510
G01 X7.5251 Y-5.5801
G01 X7.3960 Y-5.6971
G01 X7.2561 Y-5.8009
G01 X7.1067 Y-5.8904
G01 X6.9493 Y-5.9649
G01 X6.7853 Y-6.0236
G01 X6.6163 Y-6.0659
G01 X6.4440 Y-6.0915
G01 X6.2700 Y-6.1000
G01 X6.0960 Y-6.0915
G01 X5.9237 Y-6.0659
G01 X5.7547 Y-6.0236
G01 X5.5907 Y-5.9649
G01 X5.4333 Y-5.8904
G01 X5.2839 Y-5.8009
G01 X5.1440 Y-5.6971
G01 X5.0149 Y-5.5801
G01 X4.8979 Y-5.4510
G01 X4.7941 Y-5.3111
G01 X4.7046 Y-5.1617
G01 X4.6301 Y-5.0043
G01 X4.5714 Y-4.8403
G01 X4.5291 Y-4.6713
G01 X4.5035 Y-4.4990
G01 X4.4950 Y-4.3250
G01 X4.5035 Y-4.1510
G01 X4.5291 Y-3.9787
G01 X4.5714 Y-3.8097
G01 X4.6301 Y-3.6457
G01 X4.7046 Y-3.4883
G01 X4.7941 Y-3.3389
G01 X4.8979 Y-3.1990
G01 X5.0149 Y-3.0699
G01 X5.1440 Y-2.9529
G01 X5.2839 Y-2.8491
G01 X5.4333 Y-2.7596
G01 X5.5907 Y-2.6851
G01 X5.7547 Y-2.6264
G01 X5.9237 Y-2.5841
G01 X6.0960 Y-2.5585
G01 X6.2700 Y-2.5500
G01 X6.4440 Y-2.5585
G01 X6.6163 Y-2.5841
G01 X6.7853 Y-2.6264
G01 X6.9493 Y-2.6851
G01 X7.1067 Y-2.7596
G01 X7.2561 Y-2.8491
G01 X7.3960 Y-2.9529
G01 X7.5251 Y-3.0699
G01 X7.6421 Y-3.1990
G01 X7.7459 Y-3.3389
G01 X7.8354 Y-3.4883
G01 X7.9099 Y-3.6457
G01 X7.9686 Y-3.8097
G01 X8.0109 Y-3.9787
G01 X8.0365 Y-4.1510
G01 X8.0450 Y-4.3250
G00 X8.0450 Y-4.3250
G01 F60.00
G01 Z-2.0000
G01 F80.00
G01 X8.0365 Y-4.4990
G01 X8.0109 Y-4.6713
G01 X7.9686 Y-4.8403
G01 X7.9099 Y-5.0043
G01 X7.8354 Y-5.1617
G01 X7.7459 Y-5.3111
G01 X7.6421 Y-5.4510
G01 X7.5251 Y-5.5801
G01 X7.3960 Y-5.6971
G01 X7.2561 Y-5.8009
G01 X7.1067 Y-5.8904
G01 X6.9493 Y-5.9649
G01 X6.7853 Y-6.0236
G01 X6.6163 Y-6.0659
G01 X6.4440 Y-6.0915
G01 X6.2700 Y-6.1000
G01 X6.0960 Y-6.0915
G01 X5.9237 Y-6.0659
G01 X5.7547 Y-6.0236
G01 X5.5907 Y-5.9649
G01 X5.4333 Y-5.8904
G01 X5.2839 Y-5.8009
G01 X5.1440 Y-5.6971
G01 X5.0149 Y-5.5801
G01 X4.8979 Y-5.4510
G01 X4.7941 Y-5.3111
G01 X4.7046 Y-5.1617
G01 X4.6301 Y-5.0043
G01 X4.5714 Y-4.8403
G01 X4.5291 Y-4.6713
G01 X4.5035 Y-4.4990
G01 X4.4950 Y-4.3250
G01 X4.5035 Y-4.1510
G01 X4.5291 Y-3.9787
G01 X4.5714 Y-3.8097
G01 X4.6301 Y-3.6457
G01 X4.7046 Y-3.4883
G01 X4.7941 Y-3.3389
G01 X4.8979 Y-3.1990
G01 X5.0149 Y-3.0699
G01 X5.1440 Y-2.9529
G01 X5.2839 Y-2.8491
G01 X5.4333 Y-2.7596
G01 X5.5907 Y-2.6851
G01 X5.7547 Y-2.6264
G01 X5.9237 Y-2.5841
G01 X6.0960 Y-2.5585
G01 X6.2700 Y-2.5500
G01 X6.4440 Y-2.5585
G01 X6.6163 Y-2.5841
G01 X6.7853 Y-2.6264
G01 X6.9493 Y-2.6851
G01 X7.1067 Y-2.7596
G01 X7.2561 Y-2.8491
G01 X7.3960 Y-2.9529
G01 X7.5251 Y-3.0699
G01 X7.6421 Y-3.1990
G01 X7.7459 Y-3.3389
G01 X7.8354 Y-3.4883
G01 X7.9099 Y-3.6457
G01 X7.9686 Y-3.8097
G01 X8.0109 Y-3.9787
G01 X8.0365 Y-4.1510
G01 X8.0450 Y-4.3250
G00 Z2.0000
G00 X15.2450 Y-4.3250
G01 F60.00
G01 Z-0.4000
G01 F80.00
G01 X15.2365 Y-4.4990
G01 X15.2109 Y-4.6713
G01 X15.1686 Y-4.8403
G01 X15.1099 Y-5.0043
G01 X15.0354 Y-5.1617
G01 X14.9459 Y-5.3111
G01 X14.8421 Y-5.4510
G01 X14.7251 Y-5.5801
G01 X14.5960 Y-5.6971
G01 X14.4561 Y-5.8009
G01 X14.3067 Y-5.8904
G01 X14.1493 Y-5.9649
G01 X13.9853 Y-6.0236
G01 X13.8163 Y-6.0659
G01 X13.6440 Y-6.0915
G01 X13.4700 Y-6.1000
G01 X13.2960 Y-6.0915
G01 X13.1237 Y-6.0659
G01 X12.9547 Y-6.0236
G01 X12.7907 Y-5.9649
G01 X12.6333 Y-5.8904
G01 X12.4839 Y-5.8009
G01 X12.3440 Y-5.6971
G01 X12.2149 Y-5.5801
G01 X12.0979 Y-5.4510
G01 X11.9941 Y-5.3111
G01 X11.9046 Y-5.1617
G01 X11.8301 Y-5.0043
G01 X11.7714 Y-4.8403
G01 X11.7291 Y-4.6713
G01 X11.7035 Y-4.4990
G01 X11.6950 Y-4.3250
G01 X11.7035 Y-4.1510
G01 X11.7291 Y-3.9787
G01 X11.7714 Y-3.8097
G01 X11.8301 Y-3.6457
G01 X11.9046 Y-3.4883
G01 X11.9941 Y-3.3389
G01 X12.0979 Y-3.1990
G01 X12.2149 Y-3.0699
G01 X12.3440 Y-2.9529
G01 X12.4839 Y-2.8491
G01 X12.6333 Y-2.7596
G01 X12.7907 Y-2.6851
G01 X12.9547 Y-2.6264
G01 X13.1237 Y-2.5841
G01 X13.2960 Y-2.5585
G01 X13.4700 Y-2.5500
G01 X13.6440 Y-2.5585
G01 X13.8163 Y-2.5841
G01 X13.9853 Y-2.6264
G01 X14.1493 Y-2.6851
G01 X14.3067 Y-2.7596
G01 X14.4561 Y-2.8491
G01 X14.5960 Y-2.9529
G01 X14.7251 Y-3.0699
G01 X14.8421 Y-3.1990
G01 X14.9459 Y-3.3389
G01 X15.0354 Y-3.4883
G01 X15.1099 Y-3.6457
G01 X15.1686 Y-3.8097
G01 X15.2109 Y-3.9787
G01 X15.2365 Y-4.1510
G01 X15.2450 Y-4.3250
G00 X15.2450 Y-4.3250
G01 F60.00
G01 Z-0.8000
G01 F80.00
G01 X15.2365 Y-4.4990
G01 X15.2109 Y-4.6713
G01 X15.1686 Y-4.8403
G01 X15.1099 Y-5.0043
G01 X15.0354 Y-5.1617
G01 X14.9459 Y-5.3111
G01 X14.8421 Y-5.4510
G01 X14.7251 Y-5.5801
G01 X14.5960 Y-5.6971
G01 X14.4561 Y-5.8009
G01 X14.3067 Y-5.8904
G01 X14.1493 Y-5.9649
G01 X13.9853 Y-6.0236
G01 X13.8163 Y-6.0659
G01 X13.6440 Y-6.0915
G01 X13.4700 Y-6.1000
G01 X13.2960 Y-6.0915
G01 X13.1237 Y-6.0659
G01 X12.9547 Y-6.0236
G01 X12.7907 Y-5.9649
G01 X12.6333 Y-5.8904
G01 X12.4839 Y-5.8009
G01 X12.3440 Y-5.6971
G01 X12.2149 Y-5.5801
G01 X12.0979 Y-5.4510
G01 X11.9941 Y-5.3111
G01 X11.9046 Y-5.1617
G01 X11.8301 Y-5.0043
G01 X11.7714 Y-4.8403
G01 X11.7291 Y-4.6713
G01 X11.7035 Y-4.4990
G01 X11.6950 Y-4.3250
G01 X11.7035 Y-4.1510
G01 X11.7291 Y-3.9787
G01 X11.7714 Y-3.8097
G01 X11.8301 Y-3.6457
G01 X11.9046 Y-3.4883
G01 X11.9941 Y-3.3389
G01 X12.0979 Y-3.1990
G01 X12.2149 Y-3.0699
G01 X12.3440 Y-2.9529
G01 X12.4839 Y-2.8491
G01 X12.6333 Y-2.7596
G01 X12.7907 Y-2.6851
G01 X12.9547 Y-2.6264
G01 X13.1237 Y-2.5841
G01 X13.2960 Y-2.5585
G01 X13.4700 Y-2.5500
G01 X13.6440 Y-2.5585
G01 X13.8163 Y-2.5841
G01 X13.9853 Y-2.6264
G01 X14.1493 Y-2.6851
G01 X14.3067 Y-2.7596
G01 X14.4561 Y-2.8491
G01 X14.5960 Y-2.9529
G01 X14.7251 Y-3.0699
G01 X14.8421 Y-3.1990
G01 X14.9459 Y-3.3389
G01 X15.0354 Y-3.4883
G01 X15.1099 Y-3.6457
G01 X15.1686 Y-3.8097
G01 X15.2109 Y-3.9787
G01 X15.2365 Y-4.1510
G01 X15.2450 Y-4.3250
G00 X15.2450 Y-4.3250
G01 F60.00
G01 Z-1.2000
G01 F80.00
G01 X15.2365 Y-4.4990
G01 X15.2109 Y-4.6713
G01 X15.1686 Y-4.8403
G01 X15.1099 Y-5.0043
G01 X15.0354 Y-5.1617
G01 X14.9459 Y-5.3111
G01 X14.8421 Y-5.4510
G01 X14.7251 Y-5.5801
G01 X14.5960 Y-5.6971
G01 X14.4561 Y-5.8009
G01 X14.3067 Y-5.8904
G01 X14.1493 Y-5.9649
G01 X13.9853 Y-6.0236
G01 X13.8163 Y-6.0659
G01 X13.6440 Y-6.0915
G01 X13.4700 Y-6.1000
G01 X13.2960 Y-6.0915
G01 X13.1237 Y-6.0659
G01 X12.9547 Y-6.0236
G01 X12.7907 Y-5.9649
G01 X12.6333 Y-5.8904
G01 X12.4839 Y-5.8009
G01 X12.3440 Y-5.6971
G01 X12.2149 Y-5.5801
G01 X12.0979 Y-5.4510
G01 X11.9941 Y-5.3111
G01 X11.9046 Y-5.1617
G01 X11.8301 Y-5.0043
G01 X11.7714 Y-4.8403
G01 X11.7291 Y-4.6713
G01 X11.7035 Y-4.4990
G01 X11.6950 Y-4.3250
G01 X11.7035 Y-4.1510
G01 X11.7291 Y-3.9787
G01 X11.7714 Y-3.8097
G01 X11.8301 Y-3.6457
G01 X11.9046 Y-3.4883
G01 X11.9941 Y-3.3389
G01 X12.0979 Y-3.1990
G01 X12.2149 Y-3.0699
G01 X12.3440 Y-2.9529
G01 X12.4839 Y-2.8491
G01 X12.6333 Y-2.7596
G01 X12.7907 Y-2.6851
G01 X12.9547 Y-2.6264
G01 X13.1237 Y-2.5841
G01 X13.2960 Y-2.5585
G01 X13.4700 Y-2.5500
G01 X13.6440 Y-2.5585
G01 X13.8163 Y-2.5841
G01 X13.9853 Y-2.6264
G01 X14.1493 Y-2.6851
G01 X14.3067 Y-2.7596
G01 X14.4561 Y-2.8491
G01 X14.5960 Y-2.9529
G01 X14.7251 Y-3.0699
G01 X14.8421 Y-3.1990
G01 X14.9459 Y-3.3389
G01 X15.0354 Y-3.4883
G01 X15.1099 Y-3.6457
G01 X15.1686 Y-3.8097
G01 X15.2109 Y-3.9787
G01 X15.2365 Y-4.1510
G01 X15.2450 Y-4.3250
G00 X15.2450 Y-4.3250
G01 F60.00
G01 Z-1.6000
G01 F80.00
G01 X15.2365 Y-4.4990
G01 X15.2109 Y-4.6713
G01 X15.1686 Y-4.8403
G01 X15.1099 Y-5.0043
G01 X15.0354 Y-5.1617
G01 X14.9459 Y-5.3111
G01 X14.8421 Y-5.4510
G01 X14.7251 Y-5.5801
G01 X14.5960 Y-5.6971
G01 X14.4561 Y-5.8009
G01 X14.3067 Y-5.8904
G01 X14.1493 Y-5.9649
G01 X13.9853 Y-6.0236
G01 X13.8163 Y-6.0659
G01 X13.6440 Y-6.0915
G01 X13.4700 Y-6.1000
G01 X13.2960 Y-6.0915
G01 X13.1237 Y-6.0659
G01 X12.9547 Y-6.0236
G01 X12.7907 Y-5.9649
G01 X12.6333 Y-5.8904
G01 X12.4839 Y-5.8009
G01 X12.3440 Y-5.6971
G01 X12.2149 Y-5.5801
G01 X12.0979 Y-5.4510
G01 X11.9941 Y-5.3111
G01 X11.9046 Y-5.1617
G01 X11.8301 Y-5.0043
G01 X11.7714 Y-4.8403
G01 X11.7291 Y-4.6713
G01 X11.7035 Y-4.4990
G01 X11.6950 Y-4.3250
G01 X11.7035 Y-4.1510
G01 X11.7291 Y-3.9787
G01 X11.7714 Y-3.8097
G01 X11.8301 Y-3.6457
G01 X11.9046 Y-3.4883
G01 X11.9941 Y-3.3389
G01 X12.0979 Y-3.1990
G01 X12.2149 Y-3.0699
G01 X12.3440 Y-2.9529
G01 X12.4839 Y-2.8491
G01 X12.6333 Y-2.7596
G01 X12.7907 Y-2.6851
G01 X12.9547 Y-2.6264
G01 X13.1237 Y-2.5841
G01 X13.2960 Y-2.5585
G01 X13.4700 Y-2.5500
G01 X13.6440 Y-2.5585
G01 X13.8163 Y-2.5841
G01 X13.9853 Y-2.6264
G01 X14.1493 Y-2.6851
G01 X14.3067 Y-2.7596
G01 X14.4561 Y-2.8491
G01 X14.5960 Y-2.9529
G01 X14.7251 Y-3.0699
G01 X14.8421 Y-3.1990
G01 X14.9459 Y-3.3389
G01 X15.0354 Y-3.4883
G01 X15.1099 Y-3.6457
G01 X15.1686 Y-3.8097
G01 X15.2109 Y-3.9787
G01 X15.2365 Y-4.1510
G01 X15.2450 Y-4.3250
G00 X15.2450 Y-4.3250
G01 F60.00
G01 Z-2.0000
G01 F80.00
G01 X15.2365 Y-4.4990
G01 X15.2109 Y-4.6713
G01 X15.1686 Y-4.8403
G01 X15.1099 Y-5.0043
G01 X15.0354 Y-5.1617
G01 X14.9459 Y-5.3111
G01 X14.8421 Y-5.4510
G01 X14.7251 Y-5.5801
G01 X14.5960 Y-5.6971
G01 X14.4561 Y-5.8009
G01 X14.3067 Y-5.8904
G01 X14.1493 Y-5.9649
G01 X13.9853 Y-6.0236
G01 X13.8163 Y-6.0659
G01 X13.6440 Y-6.0915
G01 X13.4700 Y-6.1000
G01 X13.2960 Y-6.0915
G01 X13.1237 Y-6.0659
G01 X12.9547 Y-6.0236
G01 X12.7907 Y-5.9649
G01 X12.6333 Y-5.8904
G01 X12.4839 Y-5.8009
G01 X12.3440 Y-5.6971
G01 X12.2149 Y-5.5801
G01 X12.0979 Y-5.4510
G01 X11.9941 Y-5.3111
G01 X11.9046 Y-5.1617
G01 X11.8301 Y-5.0043
G01 X11.7714 Y-4.8403
G01 X11.7291 Y-4.6713
G01 X11.7035 Y-4.4990
G01 X11.6950 Y-4.3250
G01 X11.7035 Y-4.1510
G01 X11.7291 Y-3.9787
G01 X11.7714 Y-3.8097
G01 X11.8301 Y-3.6457
G01 X11.9046 Y-3.4883
G01 X11.9941 Y-3.3389
G01 X12.0979 Y-3.1990
G01 X12.2149 Y-3.0699
G01 X12.3440 Y-2.9529
G01 X12.4839 Y-2.8491
G01 X12.6333 Y-2.7596
G01 X12.7907 Y-2.6851
G01 X12.9547 Y-2.6264
G01 X13.1237 Y-2.5841
G01 X13.2960 Y-2.5585
G01 X13.4700 Y-2.5500
G01 X13.6440 Y-2.5585
G01 X13.8163 Y-2.5841
G01 X13.9853 Y-2.6264
G01 X14.1493 Y-2.6851
G01 X14.3067 Y-2.7596
G01 X14.4561 Y-2.8491
G01 X14.5960 Y-2.9529
G01 X14.7251 Y-3.0699
G01 X14.8421 Y-3.1990
G01 X14.9459 Y-3.3389
G01 X15.0354 Y-3.4883
G01 X15.1099 Y-3.6457
G01 X15.1686 Y-3.8097
G01 X15.2109 Y-3.9787
G01 X15.2365 Y-4.1510
G01 X15.2450 Y-4.3250
G00 Z2.0000
M05
G00 Z2.0000
G00 Z15.00


