(G-CODE GENERATED BY FLATCAM v8.994 - www.flatcam.org - Version Date: 2020/11/7)

(Name: Placa1.drl_cnc)
(Type: G-code from Geometry)
(Units: MM)

(Created on Saturday, 20 May 2023 at 12:34)


(TOOLS DIAMETER: )
(Tool: 1 -> Dia: 0.5)
(Tool: 2 -> Dia: 0.6)
(Tool: 3 -> Dia: 1.2)
(Tool: 4 -> Dia: 4.55)

(FEEDRATE Z: )
(Tool: 1 -> Feedrate: 300.0)
(Tool: 2 -> Feedrate: 300.0)
(Tool: 3 -> Feedrate: 300)
(Tool: 4 -> Feedrate: 300)

(FEEDRATE RAPIDS: )
(Tool: 1 -> Feedrate Rapids: 1500)
(Tool: 2 -> Feedrate Rapids: 1500)
(Tool: 3 -> Feedrate Rapids: 1500)
(Tool: 4 -> Feedrate Rapids: 1500)

(Z_CUT: )
(Tool: 1 -> Z_Cut: -2.0)
(Tool: 2 -> Z_Cut: -2.0)
(Tool: 3 -> Z_Cut: -1.7)
(Tool: 4 -> Z_Cut: -1.7)

(Tools Offset: )
(Tool: 2 -> Offset Z: 0.0)

(Z_MOVE: )
(Tool: 1 -> Z_Move: 2)
(Tool: 2 -> Z_Move: 2)
(Tool: 3 -> Z_Move: 2)
(Tool: 4 -> Z_Move: 2)

(Z Toolchange: 15 mm)
(X,Y Toolchange: 0.0000, 0.0000 mm)
(Z Start: None mm)
(Z End: 10.0 mm)
(X,Y End: None mm)
(Steps per circle: 64)
(Preprocessor Excellon: Toolchange_Custom)

(X range:    0.0950 ...  106.0050  mm)
(Y range:  -85.2200 ...   -0.2150  mm)

(Spindle Speed: 1500 RPM)
G21
G90
G17
G94


G01 F300.00

M6

G01 F300.00
M03 S1500
G00 X0.8850 Y-13.1200
G01 Z-2.0000
G01 Z0
G00 Z2.0000
G00 X0.8850 Y-13.1200
G01 Z-2.0000
G01 Z0
G00 Z2.0000
G00 X3.4250 Y-13.1200
G01 Z-2.0000
G01 Z0
G00 Z2.0000
G00 X5.9650 Y-13.1200
G01 Z-2.0000
G01 Z0
G00 Z2.0000
G00 X6.0600 Y-18.2000
G01 Z-2.0000
G01 Z0
G00 Z2.0000
G00 X3.5200 Y-18.2000
G01 Z-2.0000
G01 Z0
G00 Z2.0000
G00 X0.9800 Y-18.2000
G01 Z-2.0000
G01 Z0
G00 Z2.0000
G00 X0.8850 Y-23.2800
G01 Z-2.0000
G01 Z0
G00 Z2.0000
G00 X3.4250 Y-23.2800
G01 Z-2.0000
G01 Z0
G00 Z2.0000
G00 X5.9650 Y-23.2800
G01 Z-2.0000
G01 Z0
G00 Z2.0000
G00 X3.6150 Y-28.7100
G01 Z-2.0000
G01 Z0
G00 Z2.0000
G00 X3.6150 Y-33.7100
G01 Z-2.0000
G01 Z0
G00 Z2.0000
G00 X3.5200 Y-39.8850
G01 Z-2.0000
G01 Z0
G00 Z2.0000
G00 X3.5200 Y-42.4250
G01 Z-2.0000
G01 Z0
G00 Z2.0000
G00 X3.5200 Y-44.9650
G01 Z-2.0000
G01 Z0
G00 Z2.0000
G00 X3.5200 Y-47.5050
G01 Z-2.0000
G01 Z0
G00 Z2.0000
G00 X3.5200 Y-50.0450
G01 Z-2.0000
G01 Z0
G00 Z2.0000
G00 X3.5200 Y-52.5850
G01 Z-2.0000
G01 Z0
G00 Z2.0000
G00 X3.5200 Y-55.1250
G01 Z-2.0000
G01 Z0
G00 Z2.0000
G00 X3.5200 Y-57.6650
G01 Z-2.0000
G01 Z0
G00 Z2.0000
G00 X3.5200 Y-64.6500
G01 Z-2.0000
G01 Z0
G00 Z2.0000
G00 X3.5200 Y-67.1900
G01 Z-2.0000
G01 Z0
G00 Z2.0000
G00 X3.5200 Y-69.7300
G01 Z-2.0000
G01 Z0
G00 Z2.0000
G00 X3.5200 Y-72.2700
G01 Z-2.0000
G01 Z0
G00 Z2.0000
G00 X3.5200 Y-74.8100
G01 Z-2.0000
G01 Z0
G00 Z2.0000
G00 X3.5200 Y-77.3500
G01 Z-2.0000
G01 Z0
G00 Z2.0000
G00 X3.5200 Y-79.8900
G01 Z-2.0000
G01 Z0
G00 Z2.0000
G00 X3.5200 Y-82.4300
G01 Z-2.0000
G01 Z0
G00 Z2.0000
G00 X18.7600 Y-82.4300
G01 Z-2.0000
G01 Z0
G00 Z2.0000
G00 X18.7600 Y-79.8900
G01 Z-2.0000
G01 Z0
G00 Z2.0000
G00 X18.7600 Y-77.3500
G01 Z-2.0000
G01 Z0
G00 Z2.0000
G00 X18.7600 Y-74.8100
G01 Z-2.0000
G01 Z0
G00 Z2.0000
G00 X18.7600 Y-72.2700
G01 Z-2.0000
G01 Z0
G00 Z2.0000
G00 X18.7600 Y-69.7300
G01 Z-2.0000
G01 Z0
G00 Z2.0000
G00 X18.7600 Y-67.1900
G01 Z-2.0000
G01 Z0
G00 Z2.0000
G00 X18.7600 Y-64.6500
G01 Z-2.0000
G01 Z0
G00 Z2.0000
G00 X18.7600 Y-57.6650
G01 Z-2.0000
G01 Z0
G00 Z2.0000
G00 X18.7600 Y-55.1250
G01 Z-2.0000
G01 Z0
G00 Z2.0000
G00 X18.7600 Y-52.5850
G01 Z-2.0000
G01 Z0
G00 Z2.0000
G00 X18.7600 Y-50.0450
G01 Z-2.0000
G01 Z0
G00 Z2.0000
G00 X18.7600 Y-47.5050
G01 Z-2.0000
G01 Z0
G00 Z2.0000
G00 X18.7600 Y-44.9650
G01 Z-2.0000
G01 Z0
G00 Z2.0000
G00 X18.7600 Y-42.4250
G01 Z-2.0000
G01 Z0
G00 Z2.0000
G00 X18.7600 Y-39.8850
G01 Z-2.0000
G01 Z0
G00 Z2.0000
G00 X30.1900 Y-71.2700
G01 Z-2.0000
G01 Z0
G00 Z2.0000
G00 X30.1900 Y-73.2700
G01 Z-2.0000
G01 Z0
G00 Z2.0000
G00 X30.1900 Y-76.7150
G01 Z-2.0000
G01 Z0
G00 Z2.0000
G00 X30.1900 Y-78.7150
G01 Z-2.0000
G01 Z0
G00 Z2.0000
G00 X34.6350 Y-78.7150
G01 Z-2.0000
G01 Z0
G00 Z2.0000
G00 X34.6350 Y-76.7150
G01 Z-2.0000
G01 Z0
G00 Z2.0000
G00 X34.6350 Y-73.2700
G01 Z-2.0000
G01 Z0
G00 Z2.0000
G00 X34.6350 Y-71.2700
G01 Z-2.0000
G01 Z0
G00 Z2.0000
G00 X42.0100 Y-82.4300
G01 Z-2.0000
G01 Z0
G00 Z2.0000
G00 X44.5500 Y-82.4300
G01 Z-2.0000
G01 Z0
G00 Z2.0000
G00 X47.0900 Y-82.4300
G01 Z-2.0000
G01 Z0
G00 Z2.0000
G00 X49.6300 Y-82.4300
G01 Z-2.0000
G01 Z0
G00 Z2.0000
G00 X52.1700 Y-82.4300
G01 Z-2.0000
G01 Z0
G00 Z2.0000
G00 X54.7100 Y-82.4300
G01 Z-2.0000
G01 Z0
G00 Z2.0000
G00 X57.2500 Y-82.4300
G01 Z-2.0000
G01 Z0
G00 Z2.0000
G00 X59.7900 Y-82.4300
G01 Z-2.0000
G01 Z0
G00 Z2.0000
G00 X62.3300 Y-82.4300
G01 Z-2.0000
G01 Z0
G00 Z2.0000
G00 X64.8700 Y-82.4300
G01 Z-2.0000
G01 Z0
G00 Z2.0000
G00 X70.8300 Y-78.0800
G01 Z-2.0000
G01 Z0
G00 Z2.0000
G00 X70.8300 Y-76.0800
G01 Z-2.0000
G01 Z0
G00 Z2.0000
G00 X75.2750 Y-76.3500
G01 Z-2.0000
G01 Z0
G00 Z2.0000
G00 X75.2750 Y-78.3500
G01 Z-2.0000
G01 Z0
G00 Z2.0000
G00 X79.7200 Y-78.3500
G01 Z-2.0000
G01 Z0
G00 Z2.0000
G00 X79.7200 Y-76.3500
G01 Z-2.0000
G01 Z0
G00 Z2.0000
G00 X75.9100 Y-69.0950
G01 Z-2.0000
G01 Z0
G00 Z2.0000
G00 X75.9100 Y-63.0950
G01 Z-2.0000
G01 Z0
G00 Z2.0000
G00 X75.1600 Y-56.3950
G01 Z-2.0000
G01 Z0
G00 Z2.0000
G00 X72.6200 Y-56.3950
G01 Z-2.0000
G01 Z0
G00 Z2.0000
G00 X70.0800 Y-56.3950
G01 Z-2.0000
G01 Z0
G00 Z2.0000
G00 X67.5400 Y-56.3950
G01 Z-2.0000
G01 Z0
G00 Z2.0000
G00 X65.0000 Y-56.3950
G01 Z-2.0000
G01 Z0
G00 Z2.0000
G00 X62.4600 Y-56.3950
G01 Z-2.0000
G01 Z0
G00 Z2.0000
G00 X77.7000 Y-56.3950
G01 Z-2.0000
G01 Z0
G00 Z2.0000
G00 X80.2400 Y-56.3950
G01 Z-2.0000
G01 Z0
G00 Z2.0000
G00 X82.7800 Y-56.3950
G01 Z-2.0000
G01 Z0
G00 Z2.0000
G00 X85.3200 Y-56.3950
G01 Z-2.0000
G01 Z0
G00 Z2.0000
G00 X87.8600 Y-56.3950
G01 Z-2.0000
G01 Z0
G00 Z2.0000
G00 X90.4000 Y-56.3950
G01 Z-2.0000
G01 Z0
G00 Z2.0000
G00 X92.9400 Y-56.3950
G01 Z-2.0000
G01 Z0
G00 Z2.0000
G00 X95.4800 Y-56.3950
G01 Z-2.0000
G01 Z0
G00 Z2.0000
G00 X98.0200 Y-56.3950
G01 Z-2.0000
G01 Z0
G00 Z2.0000
G00 X103.3100 Y-63.2850
G01 Z-2.0000
G01 Z0
G00 Z2.0000
G00 X103.3100 Y-65.8250
G01 Z-2.0000
G01 Z0
G00 Z2.0000
G00 X103.3100 Y-68.3650
G01 Z-2.0000
G01 Z0
G00 Z2.0000
G00 X103.3100 Y-70.9050
G01 Z-2.0000
G01 Z0
G00 Z2.0000
G00 X103.3100 Y-78.6200
G01 Z-2.0000
G01 Z0
G00 Z2.0000
G00 X100.7700 Y-78.6200
G01 Z-2.0000
G01 Z0
G00 Z2.0000
G00 X100.7700 Y-81.1600
G01 Z-2.0000
G01 Z0
G00 Z2.0000
G00 X103.3100 Y-81.1600
G01 Z-2.0000
G01 Z0
G00 Z2.0000
G00 X98.2300 Y-81.1600
G01 Z-2.0000
G01 Z0
G00 Z2.0000
G00 X95.6900 Y-81.1600
G01 Z-2.0000
G01 Z0
G00 Z2.0000
G00 X93.1500 Y-81.1600
G01 Z-2.0000
G01 Z0
G00 Z2.0000
G00 X90.6100 Y-81.1600
G01 Z-2.0000
G01 Z0
G00 Z2.0000
G00 X90.6100 Y-78.6200
G01 Z-2.0000
G01 Z0
G00 Z2.0000
G00 X93.1500 Y-78.6200
G01 Z-2.0000
G01 Z0
G00 Z2.0000
G00 X95.6900 Y-78.6200
G01 Z-2.0000
G01 Z0
G00 Z2.0000
G00 X98.2300 Y-78.6200
G01 Z-2.0000
G01 Z0
G00 Z2.0000
G00 X88.0700 Y-78.6200
G01 Z-2.0000
G01 Z0
G00 Z2.0000
G00 X88.0700 Y-81.1600
G01 Z-2.0000
G01 Z0
G00 Z2.0000
G00 X87.8600 Y-30.9950
G01 Z-2.0000
G01 Z0
G00 Z2.0000
G00 X90.4000 Y-30.9950
G01 Z-2.0000
G01 Z0
G00 Z2.0000
G00 X92.9400 Y-30.9950
G01 Z-2.0000
G01 Z0
G00 Z2.0000
G00 X95.4800 Y-30.9950
G01 Z-2.0000
G01 Z0
G00 Z2.0000
G00 X98.0200 Y-30.9950
G01 Z-2.0000
G01 Z0
G00 Z2.0000
G00 X98.1350 Y-25.9150
G01 Z-2.0000
G01 Z0
G00 Z2.0000
G00 X95.5950 Y-25.9150
G01 Z-2.0000
G01 Z0
G00 Z2.0000
G00 X93.0550 Y-25.9150
G01 Z-2.0000
G01 Z0
G00 Z2.0000
G00 X90.5150 Y-25.9150
G01 Z-2.0000
G01 Z0
G00 Z2.0000
G00 X87.9750 Y-25.9150
G01 Z-2.0000
G01 Z0
G00 Z2.0000
G00 X85.4350 Y-25.9150
G01 Z-2.0000
G01 Z0
G00 Z2.0000
G00 X82.8950 Y-25.9150
G01 Z-2.0000
G01 Z0
G00 Z2.0000
G00 X80.3550 Y-25.9150
G01 Z-2.0000
G01 Z0
G00 Z2.0000
G00 X77.8150 Y-25.9150
G01 Z-2.0000
G01 Z0
G00 Z2.0000
G00 X75.2750 Y-25.9150
G01 Z-2.0000
G01 Z0
G00 Z2.0000
G00 X72.7350 Y-25.9150
G01 Z-2.0000
G01 Z0
G00 Z2.0000
G00 X70.1950 Y-25.9150
G01 Z-2.0000
G01 Z0
G00 Z2.0000
G00 X67.6550 Y-25.9150
G01 Z-2.0000
G01 Z0
G00 Z2.0000
G00 X65.1150 Y-25.9150
G01 Z-2.0000
G01 Z0
G00 Z2.0000
G00 X62.5750 Y-25.9150
G01 Z-2.0000
G01 Z0
G00 Z2.0000
G00 X62.4600 Y-30.9950
G01 Z-2.0000
G01 Z0
G00 Z2.0000
G00 X65.0000 Y-30.9950
G01 Z-2.0000
G01 Z0
G00 Z2.0000
G00 X67.5400 Y-30.9950
G01 Z-2.0000
G01 Z0
G00 Z2.0000
G00 X70.0800 Y-30.9950
G01 Z-2.0000
G01 Z0
G00 Z2.0000
G00 X72.6200 Y-30.9950
G01 Z-2.0000
G01 Z0
G00 Z2.0000
G00 X75.1600 Y-30.9950
G01 Z-2.0000
G01 Z0
G00 Z2.0000
G00 X77.7000 Y-30.9950
G01 Z-2.0000
G01 Z0
G00 Z2.0000
G00 X80.2400 Y-30.9950
G01 Z-2.0000
G01 Z0
G00 Z2.0000
G00 X82.7800 Y-30.9950
G01 Z-2.0000
G01 Z0
G00 Z2.0000
G00 X85.3200 Y-30.9950
G01 Z-2.0000
G01 Z0
G00 Z2.0000
G00 X85.4350 Y-0.5150
G01 Z-2.0000
G01 Z0
G00 Z2.0000
G00 X82.8950 Y-0.5150
G01 Z-2.0000
G01 Z0
G00 Z2.0000
G00 X80.3550 Y-0.5150
G01 Z-2.0000
G01 Z0
G00 Z2.0000
G00 X77.8150 Y-0.5150
G01 Z-2.0000
G01 Z0
G00 Z2.0000
G00 X75.2750 Y-0.5150
G01 Z-2.0000
G01 Z0
G00 Z2.0000
G00 X72.7350 Y-0.5150
G01 Z-2.0000
G01 Z0
G00 Z2.0000
G00 X70.1950 Y-0.5150
G01 Z-2.0000
G01 Z0
G00 Z2.0000
G00 X67.6550 Y-0.5150
G01 Z-2.0000
G01 Z0
G00 Z2.0000
G00 X65.1150 Y-0.5150
G01 Z-2.0000
G01 Z0
G00 Z2.0000
G00 X62.5750 Y-0.5150
G01 Z-2.0000
G01 Z0
G00 Z2.0000
G00 X50.5100 Y-3.0550
G01 Z-2.0000
G01 Z0
G00 Z2.0000
G00 X47.9700 Y-3.0550
G01 Z-2.0000
G01 Z0
G00 Z2.0000
G00 X45.4300 Y-3.0550
G01 Z-2.0000
G01 Z0
G00 Z2.0000
G00 X45.4300 Y-5.5950
G01 Z-2.0000
G01 Z0
G00 Z2.0000
G00 X47.9700 Y-5.5950
G01 Z-2.0000
G01 Z0
G00 Z2.0000
G00 X50.5100 Y-5.5950
G01 Z-2.0000
G01 Z0
G00 Z2.0000
G00 X42.8900 Y-5.5950
G01 Z-2.0000
G01 Z0
G00 Z2.0000
G00 X40.3500 Y-5.5950
G01 Z-2.0000
G01 Z0
G00 Z2.0000
G00 X37.8100 Y-5.5950
G01 Z-2.0000
G01 Z0
G00 Z2.0000
G00 X35.2700 Y-5.5950
G01 Z-2.0000
G01 Z0
G00 Z2.0000
G00 X35.2700 Y-3.0550
G01 Z-2.0000
G01 Z0
G00 Z2.0000
G00 X37.8100 Y-3.0550
G01 Z-2.0000
G01 Z0
G00 Z2.0000
G00 X40.3500 Y-3.0550
G01 Z-2.0000
G01 Z0
G00 Z2.0000
G00 X42.8900 Y-3.0550
G01 Z-2.0000
G01 Z0
G00 Z2.0000
G00 X29.3800 Y-2.1500
G01 Z-2.0000
G01 Z0
G00 Z2.0000
G00 X29.3800 Y-6.1500
G01 Z-2.0000
G01 Z0
G00 Z2.0000
G00 X23.3800 Y-6.1500
G01 Z-2.0000
G01 Z0
G00 Z2.0000
G00 X23.3800 Y-2.1500
G01 Z-2.0000
G01 Z0
G00 Z2.0000
G00 X87.9750 Y-0.5150
G01 Z-2.0000
G01 Z0
G00 Z2.0000
G00 X90.5150 Y-0.5150
G01 Z-2.0000
G01 Z0
G00 Z2.0000
G00 X93.0550 Y-0.5150
G01 Z-2.0000
G01 Z0
G00 Z2.0000
G00 X95.5950 Y-0.5150
G01 Z-2.0000
G01 Z0
G00 Z2.0000
G00 X98.1350 Y-0.5150
G01 Z-2.0000
G01 Z0
G00 Z2.0000
M05
G00 Z10.00


