(G-CODE GENERATED BY FLATCAM v8.994 - www.flatcam.org - Version Date: 2020/11/7)

(Name: Placa1-Edge_Cuts.gbr_noncopper_cnc)
(Type: G-code from Geometry)
(Units: MM)

(Created on Saturday, 20 May 2023 at 16:55)

(This preprocessor is the default preprocessor used by FlatCAM.)
(It is made to work with MACH3 compatible motion controllers.)

(TOOL DIAMETER: 1.0 mm)
(Feedrate_XY: 60.0 mm/min)
(Feedrate_Z: 60.0 mm/min)
(Feedrate rapids 1500.0 mm/min)

(Z_Cut: -2.0 mm)
(DepthPerCut: 0.2 mm <=>10 passes)
(Z_Move: 2.0 mm)
(Z Start: None mm)
(Z End: 15.0 mm)
(X,Y End: None mm)
(Steps per circle: 64)
(Preprocessor Geometry: default)

(X range:   -1.7100 ...  108.5900  mm)
(Y range:  -86.8550 ...    3.4450  mm)

(Spindle Speed: 1500.0 RPM)
G21
G90
G94

G01 F60.00

M5
G00 Z15.0000
G00 X0.0000 Y0.0000
T1
M6    
(MSG, Change to Tool Dia = 1.0000)
M0
G00 Z15.0000

M03 S1500.0
G01 F60.00
G00 X-1.6100 Y3.2950
G01 F60.00
G01 Z-0.2000
G01 F60.00
G01 X-1.6100 Y-86.7050
G01 X-1.6091 Y-86.7148
G01 X-1.6062 Y-86.7241
G01 X-1.6016 Y-86.7328
G01 X-1.5954 Y-86.7404
G01 X-1.5917 Y-86.7437
G01 X-1.5836 Y-86.7491
G01 X-1.5745 Y-86.7529
G01 X-1.5649 Y-86.7548
G01 X-1.5600 Y-86.7550
G01 X108.4400 Y-86.7550
G01 X108.4498 Y-86.7541
G01 X108.4591 Y-86.7512
G01 X108.4678 Y-86.7466
G01 X108.4754 Y-86.7404
G01 X108.4787 Y-86.7367
G01 X108.4841 Y-86.7286
G01 X108.4879 Y-86.7195
G01 X108.4898 Y-86.7099
G01 X108.4900 Y-86.7050
G01 X108.4900 Y3.2950
G01 X108.4891 Y3.3048
G01 X108.4862 Y3.3141
G01 X108.4816 Y3.3228
G01 X108.4754 Y3.3304
G01 X108.4717 Y3.3337
G01 X108.4636 Y3.3391
G01 X108.4545 Y3.3429
G01 X108.4449 Y3.3448
G01 X108.4400 Y3.3450
G01 X-1.5600 Y3.3450
G01 X-1.5698 Y3.3441
G01 X-1.5791 Y3.3412
G01 X-1.5878 Y3.3366
G01 X-1.5954 Y3.3304
G01 X-1.6016 Y3.3228
G01 X-1.6062 Y3.3141
G01 X-1.6091 Y3.3048
G01 X-1.6100 Y3.2950
G00 X-1.6100 Y3.2950
G01 F60.00
G01 Z-0.4000
G01 F60.00
G01 X-1.6100 Y-86.7050
G01 X-1.6091 Y-86.7148
G01 X-1.6062 Y-86.7241
G01 X-1.6016 Y-86.7328
G01 X-1.5954 Y-86.7404
G01 X-1.5917 Y-86.7437
G01 X-1.5836 Y-86.7491
G01 X-1.5745 Y-86.7529
G01 X-1.5649 Y-86.7548
G01 X-1.5600 Y-86.7550
G01 X108.4400 Y-86.7550
G01 X108.4498 Y-86.7541
G01 X108.4591 Y-86.7512
G01 X108.4678 Y-86.7466
G01 X108.4754 Y-86.7404
G01 X108.4787 Y-86.7367
G01 X108.4841 Y-86.7286
G01 X108.4879 Y-86.7195
G01 X108.4898 Y-86.7099
G01 X108.4900 Y-86.7050
G01 X108.4900 Y3.2950
G01 X108.4891 Y3.3048
G01 X108.4862 Y3.3141
G01 X108.4816 Y3.3228
G01 X108.4754 Y3.3304
G01 X108.4717 Y3.3337
G01 X108.4636 Y3.3391
G01 X108.4545 Y3.3429
G01 X108.4449 Y3.3448
G01 X108.4400 Y3.3450
G01 X-1.5600 Y3.3450
G01 X-1.5698 Y3.3441
G01 X-1.5791 Y3.3412
G01 X-1.5878 Y3.3366
G01 X-1.5954 Y3.3304
G01 X-1.6016 Y3.3228
G01 X-1.6062 Y3.3141
G01 X-1.6091 Y3.3048
G01 X-1.6100 Y3.2950
G00 X-1.6100 Y3.2950
G01 F60.00
G01 Z-0.6000
G01 F60.00
G01 X-1.6100 Y-86.7050
G01 X-1.6091 Y-86.7148
G01 X-1.6062 Y-86.7241
G01 X-1.6016 Y-86.7328
G01 X-1.5954 Y-86.7404
G01 X-1.5917 Y-86.7437
G01 X-1.5836 Y-86.7491
G01 X-1.5745 Y-86.7529
G01 X-1.5649 Y-86.7548
G01 X-1.5600 Y-86.7550
G01 X108.4400 Y-86.7550
G01 X108.4498 Y-86.7541
G01 X108.4591 Y-86.7512
G01 X108.4678 Y-86.7466
G01 X108.4754 Y-86.7404
G01 X108.4787 Y-86.7367
G01 X108.4841 Y-86.7286
G01 X108.4879 Y-86.7195
G01 X108.4898 Y-86.7099
G01 X108.4900 Y-86.7050
G01 X108.4900 Y3.2950
G01 X108.4891 Y3.3048
G01 X108.4862 Y3.3141
G01 X108.4816 Y3.3228
G01 X108.4754 Y3.3304
G01 X108.4717 Y3.3337
G01 X108.4636 Y3.3391
G01 X108.4545 Y3.3429
G01 X108.4449 Y3.3448
G01 X108.4400 Y3.3450
G01 X-1.5600 Y3.3450
G01 X-1.5698 Y3.3441
G01 X-1.5791 Y3.3412
G01 X-1.5878 Y3.3366
G01 X-1.5954 Y3.3304
G01 X-1.6016 Y3.3228
G01 X-1.6062 Y3.3141
G01 X-1.6091 Y3.3048
G01 X-1.6100 Y3.2950
G00 X-1.6100 Y3.2950
G01 F60.00
G01 Z-0.8000
G01 F60.00
G01 X-1.6100 Y-86.7050
G01 X-1.6091 Y-86.7148
G01 X-1.6062 Y-86.7241
G01 X-1.6016 Y-86.7328
G01 X-1.5954 Y-86.7404
G01 X-1.5917 Y-86.7437
G01 X-1.5836 Y-86.7491
G01 X-1.5745 Y-86.7529
G01 X-1.5649 Y-86.7548
G01 X-1.5600 Y-86.7550
G01 X108.4400 Y-86.7550
G01 X108.4498 Y-86.7541
G01 X108.4591 Y-86.7512
G01 X108.4678 Y-86.7466
G01 X108.4754 Y-86.7404
G01 X108.4787 Y-86.7367
G01 X108.4841 Y-86.7286
G01 X108.4879 Y-86.7195
G01 X108.4898 Y-86.7099
G01 X108.4900 Y-86.7050
G01 X108.4900 Y3.2950
G01 X108.4891 Y3.3048
G01 X108.4862 Y3.3141
G01 X108.4816 Y3.3228
G01 X108.4754 Y3.3304
G01 X108.4717 Y3.3337
G01 X108.4636 Y3.3391
G01 X108.4545 Y3.3429
G01 X108.4449 Y3.3448
G01 X108.4400 Y3.3450
G01 X-1.5600 Y3.3450
G01 X-1.5698 Y3.3441
G01 X-1.5791 Y3.3412
G01 X-1.5878 Y3.3366
G01 X-1.5954 Y3.3304
G01 X-1.6016 Y3.3228
G01 X-1.6062 Y3.3141
G01 X-1.6091 Y3.3048
G01 X-1.6100 Y3.2950
G00 X-1.6100 Y3.2950
G01 F60.00
G01 Z-1.0000
G01 F60.00
G01 X-1.6100 Y-86.7050
G01 X-1.6091 Y-86.7148
G01 X-1.6062 Y-86.7241
G01 X-1.6016 Y-86.7328
G01 X-1.5954 Y-86.7404
G01 X-1.5917 Y-86.7437
G01 X-1.5836 Y-86.7491
G01 X-1.5745 Y-86.7529
G01 X-1.5649 Y-86.7548
G01 X-1.5600 Y-86.7550
G01 X108.4400 Y-86.7550
G01 X108.4498 Y-86.7541
G01 X108.4591 Y-86.7512
G01 X108.4678 Y-86.7466
G01 X108.4754 Y-86.7404
G01 X108.4787 Y-86.7367
G01 X108.4841 Y-86.7286
G01 X108.4879 Y-86.7195
G01 X108.4898 Y-86.7099
G01 X108.4900 Y-86.7050
G01 X108.4900 Y3.2950
G01 X108.4891 Y3.3048
G01 X108.4862 Y3.3141
G01 X108.4816 Y3.3228
G01 X108.4754 Y3.3304
G01 X108.4717 Y3.3337
G01 X108.4636 Y3.3391
G01 X108.4545 Y3.3429
G01 X108.4449 Y3.3448
G01 X108.4400 Y3.3450
G01 X-1.5600 Y3.3450
G01 X-1.5698 Y3.3441
G01 X-1.5791 Y3.3412
G01 X-1.5878 Y3.3366
G01 X-1.5954 Y3.3304
G01 X-1.6016 Y3.3228
G01 X-1.6062 Y3.3141
G01 X-1.6091 Y3.3048
G01 X-1.6100 Y3.2950
G00 X-1.6100 Y3.2950
G01 F60.00
G01 Z-1.2000
G01 F60.00
G01 X-1.6100 Y-86.7050
G01 X-1.6091 Y-86.7148
G01 X-1.6062 Y-86.7241
G01 X-1.6016 Y-86.7328
G01 X-1.5954 Y-86.7404
G01 X-1.5917 Y-86.7437
G01 X-1.5836 Y-86.7491
G01 X-1.5745 Y-86.7529
G01 X-1.5649 Y-86.7548
G01 X-1.5600 Y-86.7550
G01 X108.4400 Y-86.7550
G01 X108.4498 Y-86.7541
G01 X108.4591 Y-86.7512
G01 X108.4678 Y-86.7466
G01 X108.4754 Y-86.7404
G01 X108.4787 Y-86.7367
G01 X108.4841 Y-86.7286
G01 X108.4879 Y-86.7195
G01 X108.4898 Y-86.7099
G01 X108.4900 Y-86.7050
G01 X108.4900 Y3.2950
G01 X108.4891 Y3.3048
G01 X108.4862 Y3.3141
G01 X108.4816 Y3.3228
G01 X108.4754 Y3.3304
G01 X108.4717 Y3.3337
G01 X108.4636 Y3.3391
G01 X108.4545 Y3.3429
G01 X108.4449 Y3.3448
G01 X108.4400 Y3.3450
G01 X-1.5600 Y3.3450
G01 X-1.5698 Y3.3441
G01 X-1.5791 Y3.3412
G01 X-1.5878 Y3.3366
G01 X-1.5954 Y3.3304
G01 X-1.6016 Y3.3228
G01 X-1.6062 Y3.3141
G01 X-1.6091 Y3.3048
G01 X-1.6100 Y3.2950
G00 X-1.6100 Y3.2950
G01 F60.00
G01 Z-1.4000
G01 F60.00
G01 X-1.6100 Y-86.7050
G01 X-1.6091 Y-86.7148
G01 X-1.6062 Y-86.7241
G01 X-1.6016 Y-86.7328
G01 X-1.5954 Y-86.7404
G01 X-1.5917 Y-86.7437
G01 X-1.5836 Y-86.7491
G01 X-1.5745 Y-86.7529
G01 X-1.5649 Y-86.7548
G01 X-1.5600 Y-86.7550
G01 X108.4400 Y-86.7550
G01 X108.4498 Y-86.7541
G01 X108.4591 Y-86.7512
G01 X108.4678 Y-86.7466
G01 X108.4754 Y-86.7404
G01 X108.4787 Y-86.7367
G01 X108.4841 Y-86.7286
G01 X108.4879 Y-86.7195
G01 X108.4898 Y-86.7099
G01 X108.4900 Y-86.7050
G01 X108.4900 Y3.2950
G01 X108.4891 Y3.3048
G01 X108.4862 Y3.3141
G01 X108.4816 Y3.3228
G01 X108.4754 Y3.3304
G01 X108.4717 Y3.3337
G01 X108.4636 Y3.3391
G01 X108.4545 Y3.3429
G01 X108.4449 Y3.3448
G01 X108.4400 Y3.3450
G01 X-1.5600 Y3.3450
G01 X-1.5698 Y3.3441
G01 X-1.5791 Y3.3412
G01 X-1.5878 Y3.3366
G01 X-1.5954 Y3.3304
G01 X-1.6016 Y3.3228
G01 X-1.6062 Y3.3141
G01 X-1.6091 Y3.3048
G01 X-1.6100 Y3.2950
G00 X-1.6100 Y3.2950
G01 F60.00
G01 Z-1.6000
G01 F60.00
G01 X-1.6100 Y-86.7050
G01 X-1.6091 Y-86.7148
G01 X-1.6062 Y-86.7241
G01 X-1.6016 Y-86.7328
G01 X-1.5954 Y-86.7404
G01 X-1.5917 Y-86.7437
G01 X-1.5836 Y-86.7491
G01 X-1.5745 Y-86.7529
G01 X-1.5649 Y-86.7548
G01 X-1.5600 Y-86.7550
G01 X108.4400 Y-86.7550
G01 X108.4498 Y-86.7541
G01 X108.4591 Y-86.7512
G01 X108.4678 Y-86.7466
G01 X108.4754 Y-86.7404
G01 X108.4787 Y-86.7367
G01 X108.4841 Y-86.7286
G01 X108.4879 Y-86.7195
G01 X108.4898 Y-86.7099
G01 X108.4900 Y-86.7050
G01 X108.4900 Y3.2950
G01 X108.4891 Y3.3048
G01 X108.4862 Y3.3141
G01 X108.4816 Y3.3228
G01 X108.4754 Y3.3304
G01 X108.4717 Y3.3337
G01 X108.4636 Y3.3391
G01 X108.4545 Y3.3429
G01 X108.4449 Y3.3448
G01 X108.4400 Y3.3450
G01 X-1.5600 Y3.3450
G01 X-1.5698 Y3.3441
G01 X-1.5791 Y3.3412
G01 X-1.5878 Y3.3366
G01 X-1.5954 Y3.3304
G01 X-1.6016 Y3.3228
G01 X-1.6062 Y3.3141
G01 X-1.6091 Y3.3048
G01 X-1.6100 Y3.2950
G00 X-1.6100 Y3.2950
G01 F60.00
G01 Z-1.8000
G01 F60.00
G01 X-1.6100 Y-86.7050
G01 X-1.6091 Y-86.7148
G01 X-1.6062 Y-86.7241
G01 X-1.6016 Y-86.7328
G01 X-1.5954 Y-86.7404
G01 X-1.5917 Y-86.7437
G01 X-1.5836 Y-86.7491
G01 X-1.5745 Y-86.7529
G01 X-1.5649 Y-86.7548
G01 X-1.5600 Y-86.7550
G01 X108.4400 Y-86.7550
G01 X108.4498 Y-86.7541
G01 X108.4591 Y-86.7512
G01 X108.4678 Y-86.7466
G01 X108.4754 Y-86.7404
G01 X108.4787 Y-86.7367
G01 X108.4841 Y-86.7286
G01 X108.4879 Y-86.7195
G01 X108.4898 Y-86.7099
G01 X108.4900 Y-86.7050
G01 X108.4900 Y3.2950
G01 X108.4891 Y3.3048
G01 X108.4862 Y3.3141
G01 X108.4816 Y3.3228
G01 X108.4754 Y3.3304
G01 X108.4717 Y3.3337
G01 X108.4636 Y3.3391
G01 X108.4545 Y3.3429
G01 X108.4449 Y3.3448
G01 X108.4400 Y3.3450
G01 X-1.5600 Y3.3450
G01 X-1.5698 Y3.3441
G01 X-1.5791 Y3.3412
G01 X-1.5878 Y3.3366
G01 X-1.5954 Y3.3304
G01 X-1.6016 Y3.3228
G01 X-1.6062 Y3.3141
G01 X-1.6091 Y3.3048
G01 X-1.6100 Y3.2950
G00 X-1.6100 Y3.2950
G01 F60.00
G01 Z-2.0000
G01 F60.00
G01 X-1.6100 Y-86.7050
G01 X-1.6091 Y-86.7148
G01 X-1.6062 Y-86.7241
G01 X-1.6016 Y-86.7328
G01 X-1.5954 Y-86.7404
G01 X-1.5917 Y-86.7437
G01 X-1.5836 Y-86.7491
G01 X-1.5745 Y-86.7529
G01 X-1.5649 Y-86.7548
G01 X-1.5600 Y-86.7550
G01 X108.4400 Y-86.7550
G01 X108.4498 Y-86.7541
G01 X108.4591 Y-86.7512
G01 X108.4678 Y-86.7466
G01 X108.4754 Y-86.7404
G01 X108.4787 Y-86.7367
G01 X108.4841 Y-86.7286
G01 X108.4879 Y-86.7195
G01 X108.4898 Y-86.7099
G01 X108.4900 Y-86.7050
G01 X108.4900 Y3.2950
G01 X108.4891 Y3.3048
G01 X108.4862 Y3.3141
G01 X108.4816 Y3.3228
G01 X108.4754 Y3.3304
G01 X108.4717 Y3.3337
G01 X108.4636 Y3.3391
G01 X108.4545 Y3.3429
G01 X108.4449 Y3.3448
G01 X108.4400 Y3.3450
G01 X-1.5600 Y3.3450
G01 X-1.5698 Y3.3441
G01 X-1.5791 Y3.3412
G01 X-1.5878 Y3.3366
G01 X-1.5954 Y3.3304
G01 X-1.6016 Y3.3228
G01 X-1.6062 Y3.3141
G01 X-1.6091 Y3.3048
G01 X-1.6100 Y3.2950
G00 Z2.0000
G00 X-1.7100 Y-86.8550
G01 F60.00
G01 Z-0.2000
G01 F60.00
G01 X-1.7100 Y3.4450
G01 X108.5900 Y3.4450
G01 X108.5900 Y-86.8550
G01 X-1.7100 Y-86.8550
G00 X-1.7100 Y-86.8550
G01 F60.00
G01 Z-0.4000
G01 F60.00
G01 X-1.7100 Y3.4450
G01 X108.5900 Y3.4450
G01 X108.5900 Y-86.8550
G01 X-1.7100 Y-86.8550
G00 X-1.7100 Y-86.8550
G01 F60.00
G01 Z-0.6000
G01 F60.00
G01 X-1.7100 Y3.4450
G01 X108.5900 Y3.4450
G01 X108.5900 Y-86.8550
G01 X-1.7100 Y-86.8550
G00 X-1.7100 Y-86.8550
G01 F60.00
G01 Z-0.8000
G01 F60.00
G01 X-1.7100 Y3.4450
G01 X108.5900 Y3.4450
G01 X108.5900 Y-86.8550
G01 X-1.7100 Y-86.8550
G00 X-1.7100 Y-86.8550
G01 F60.00
G01 Z-1.0000
G01 F60.00
G01 X-1.7100 Y3.4450
G01 X108.5900 Y3.4450
G01 X108.5900 Y-86.8550
G01 X-1.7100 Y-86.8550
G00 X-1.7100 Y-86.8550
G01 F60.00
G01 Z-1.2000
G01 F60.00
G01 X-1.7100 Y3.4450
G01 X108.5900 Y3.4450
G01 X108.5900 Y-86.8550
G01 X-1.7100 Y-86.8550
G00 X-1.7100 Y-86.8550
G01 F60.00
G01 Z-1.4000
G01 F60.00
G01 X-1.7100 Y3.4450
G01 X108.5900 Y3.4450
G01 X108.5900 Y-86.8550
G01 X-1.7100 Y-86.8550
G00 X-1.7100 Y-86.8550
G01 F60.00
G01 Z-1.6000
G01 F60.00
G01 X-1.7100 Y3.4450
G01 X108.5900 Y3.4450
G01 X108.5900 Y-86.8550
G01 X-1.7100 Y-86.8550
G00 X-1.7100 Y-86.8550
G01 F60.00
G01 Z-1.8000
G01 F60.00
G01 X-1.7100 Y3.4450
G01 X108.5900 Y3.4450
G01 X108.5900 Y-86.8550
G01 X-1.7100 Y-86.8550
G00 X-1.7100 Y-86.8550
G01 F60.00
G01 Z-2.0000
G01 F60.00
G01 X-1.7100 Y3.4450
G01 X108.5900 Y3.4450
G01 X108.5900 Y-86.8550
G01 X-1.7100 Y-86.8550
G00 Z2.0000
G00 X108.3900 Y-86.6550
G01 F60.00
G01 Z-0.2000
G01 F60.00
G01 X-1.5100 Y-86.6550
G01 X-1.5100 Y3.2450
G01 X108.3900 Y3.2450
G01 X108.3900 Y-86.6550
G00 X108.3900 Y-86.6550
G01 F60.00
G01 Z-0.4000
G01 F60.00
G01 X-1.5100 Y-86.6550
G01 X-1.5100 Y3.2450
G01 X108.3900 Y3.2450
G01 X108.3900 Y-86.6550
G00 X108.3900 Y-86.6550
G01 F60.00
G01 Z-0.6000
G01 F60.00
G01 X-1.5100 Y-86.6550
G01 X-1.5100 Y3.2450
G01 X108.3900 Y3.2450
G01 X108.3900 Y-86.6550
G00 X108.3900 Y-86.6550
G01 F60.00
G01 Z-0.8000
G01 F60.00
G01 X-1.5100 Y-86.6550
G01 X-1.5100 Y3.2450
G01 X108.3900 Y3.2450
G01 X108.3900 Y-86.6550
G00 X108.3900 Y-86.6550
G01 F60.00
G01 Z-1.0000
G01 F60.00
G01 X-1.5100 Y-86.6550
G01 X-1.5100 Y3.2450
G01 X108.3900 Y3.2450
G01 X108.3900 Y-86.6550
G00 X108.3900 Y-86.6550
G01 F60.00
G01 Z-1.2000
G01 F60.00
G01 X-1.5100 Y-86.6550
G01 X-1.5100 Y3.2450
G01 X108.3900 Y3.2450
G01 X108.3900 Y-86.6550
G00 X108.3900 Y-86.6550
G01 F60.00
G01 Z-1.4000
G01 F60.00
G01 X-1.5100 Y-86.6550
G01 X-1.5100 Y3.2450
G01 X108.3900 Y3.2450
G01 X108.3900 Y-86.6550
G00 X108.3900 Y-86.6550
G01 F60.00
G01 Z-1.6000
G01 F60.00
G01 X-1.5100 Y-86.6550
G01 X-1.5100 Y3.2450
G01 X108.3900 Y3.2450
G01 X108.3900 Y-86.6550
G00 X108.3900 Y-86.6550
G01 F60.00
G01 Z-1.8000
G01 F60.00
G01 X-1.5100 Y-86.6550
G01 X-1.5100 Y3.2450
G01 X108.3900 Y3.2450
G01 X108.3900 Y-86.6550
G00 X108.3900 Y-86.6550
G01 F60.00
G01 Z-2.0000
G01 F60.00
G01 X-1.5100 Y-86.6550
G01 X-1.5100 Y3.2450
G01 X108.3900 Y3.2450
G01 X108.3900 Y-86.6550
G00 Z2.0000
M05
G00 Z2.0000
G00 Z15.00


