(G-CODE GENERATED BY FLATCAM v8.994 - www.flatcam.org - Version Date: 2020/11/7)

(Name: Placa1.drl_cnc)
(Type: G-code from Geometry)
(Units: MM)

(Created on Saturday, 20 May 2023 at 12:35)


(TOOLS DIAMETER: )
(Tool: 1 -> Dia: 0.5)
(Tool: 2 -> Dia: 0.6)
(Tool: 3 -> Dia: 1.2)
(Tool: 4 -> Dia: 4.55)

(FEEDRATE Z: )
(Tool: 1 -> Feedrate: 300)
(Tool: 2 -> Feedrate: 300)
(Tool: 3 -> Feedrate: 300)
(Tool: 4 -> Feedrate: 300)

(FEEDRATE RAPIDS: )
(Tool: 1 -> Feedrate Rapids: 1500)
(Tool: 2 -> Feedrate Rapids: 1500)
(Tool: 3 -> Feedrate Rapids: 1500)
(Tool: 4 -> Feedrate Rapids: 1500)

(Z_CUT: )
(Tool: 1 -> Z_Cut: -2.0)
(Tool: 2 -> Z_Cut: -1.7)
(Tool: 3 -> Z_Cut: -1.7)
(Tool: 4 -> Z_Cut: -1.7)

(Tools Offset: )
(Tool: 1 -> Offset Z: 0.0)

(Z_MOVE: )
(Tool: 1 -> Z_Move: 2.0)
(Tool: 2 -> Z_Move: 2)
(Tool: 3 -> Z_Move: 2)
(Tool: 4 -> Z_Move: 2)

(Z Toolchange: 15 mm)
(X,Y Toolchange: 0.0000, 0.0000 mm)
(Z Start: None mm)
(Z End: 10.0 mm)
(X,Y End: None mm)
(Steps per circle: 64)
(Preprocessor Excellon: Toolchange_Custom)

(X range:    0.0950 ...  106.0050  mm)
(Y range:  -85.2200 ...   -0.2150  mm)

(Spindle Speed: 1500 RPM)
G21
G90
G17
G94


G01 F300.00

M6

G01 F300.00
M03 S1500
G00 X0.3450 Y-37.3450
G01 Z-2.0000
G01 Z0
G00 Z2.0000
G00 X0.3450 Y-37.3450
G01 Z-2.0000
G01 Z0
G00 Z2.0000
G00 X7.1430 Y-41.7900
G01 Z-2.0000
G01 Z0
G00 Z2.0000
G00 X8.6000 Y-45.6000
G01 Z-2.0000
G01 Z0
G00 Z2.0000
G00 X14.9500 Y-48.7750
G01 Z-2.0000
G01 Z0
G00 Z2.0000
G00 X22.5700 Y-47.5050
G01 Z-2.0000
G01 Z0
G00 Z2.0000
G00 X24.4750 Y-49.4100
G01 Z-2.0000
G01 Z0
G00 Z2.0000
G00 X27.6500 Y-51.3150
G01 Z-2.0000
G01 Z0
G00 Z2.0000
G00 X27.0150 Y-53.8550
G01 Z-2.0000
G01 Z0
G00 Z2.0000
G00 X27.0150 Y-57.0300
G01 Z-2.0000
G01 Z0
G00 Z2.0000
G00 X28.9200 Y-58.9350
G01 Z-2.0000
G01 Z0
G00 Z2.0000
G00 X34.0000 Y-57.0300
G01 Z-2.0000
G01 Z0
G00 Z2.0000
G00 X35.9050 Y-58.9350
G01 Z-2.0000
G01 Z0
G00 Z2.0000
G00 X35.9050 Y-53.2200
G01 Z-2.0000
G01 Z0
G00 Z2.0000
G00 X33.3650 Y-53.2200
G01 Z-2.0000
G01 Z0
G00 Z2.0000
G00 X44.1600 Y-62.1100
G01 Z-2.0000
G01 Z0
G00 Z2.0000
G00 X48.6050 Y-55.7600
G01 Z-2.0000
G01 Z0
G00 Z2.0000
G00 X56.2250 Y-57.0300
G01 Z-2.0000
G01 Z0
G00 Z2.0000
G00 X58.1300 Y-57.0300
G01 Z-2.0000
G01 Z0
G00 Z2.0000
G00 X59.4000 Y-60.8400
G01 Z-2.0000
G01 Z0
G00 Z2.0000
G00 X57.4950 Y-62.7450
G01 Z-2.0000
G01 Z0
G00 Z2.0000
G00 X55.5900 Y-64.6500
G01 Z-2.0000
G01 Z0
G00 Z2.0000
G00 X54.3200 Y-66.5550
G01 Z-2.0000
G01 Z0
G00 Z2.0000
G00 X52.4150 Y-68.4600
G01 Z-2.0000
G01 Z0
G00 Z2.0000
G00 X56.2250 Y-74.8100
G01 Z-2.0000
G01 Z0
G00 Z2.0000
G00 X68.2900 Y-74.1750
G01 Z-2.0000
G01 Z0
G00 Z2.0000
G00 X68.2900 Y-79.2550
G01 Z-2.0000
G01 Z0
G00 Z2.0000
G00 X77.1800 Y-79.8900
G01 Z-2.0000
G01 Z0
G00 Z2.0000
G00 X82.2600 Y-79.2550
G01 Z-2.0000
G01 Z0
G00 Z2.0000
G00 X84.8000 Y-72.9050
G01 Z-2.0000
G01 Z0
G00 Z2.0000
G00 X86.7050 Y-73.5400
G01 Z-2.0000
G01 Z0
G00 Z2.0000
G00 X91.1500 Y-73.5400
G01 Z-2.0000
G01 Z0
G00 Z2.0000
G00 X82.2600 Y-72.2700
G01 Z-2.0000
G01 Z0
G00 Z2.0000
G00 X81.6250 Y-60.2050
G01 Z-2.0000
G01 Z0
G00 Z2.0000
G00 X86.0700 Y-59.5700
G01 Z-2.0000
G01 Z0
G00 Z2.0000
G00 X88.6100 Y-61.4750
G01 Z-2.0000
G01 Z0
G00 Z2.0000
G00 X91.1500 Y-62.7450
G01 Z-2.0000
G01 Z0
G00 Z2.0000
G00 X96.8650 Y-58.9350
G01 Z-2.0000
G01 Z0
G00 Z2.0000
G00 X99.4050 Y-44.3300
G01 Z-2.0000
G01 Z0
G00 Z2.0000
G00 X100.6750 Y-38.6150
G01 Z-2.0000
G01 Z0
G00 Z2.0000
G00 X100.6750 Y-32.9000
G01 Z-2.0000
G01 Z0
G00 Z2.0000
G00 X92.4200 Y-34.8050
G01 Z-2.0000
G01 Z0
G00 Z2.0000
G00 X74.0050 Y-41.1550
G01 Z-2.0000
G01 Z0
G00 Z2.0000
G00 X60.0350 Y-40.5200
G01 Z-2.0000
G01 Z0
G00 Z2.0000
G00 X58.1300 Y-38.6150
G01 Z-2.0000
G01 Z0
G00 Z2.0000
G00 X56.2250 Y-36.7100
G01 Z-2.0000
G01 Z0
G00 Z2.0000
G00 X54.3200 Y-34.8050
G01 Z-2.0000
G01 Z0
G00 Z2.0000
G00 X52.4150 Y-32.9000
G01 Z-2.0000
G01 Z0
G00 Z2.0000
G00 X50.5100 Y-30.9950
G01 Z-2.0000
G01 Z0
G00 Z2.0000
G00 X48.6050 Y-29.0900
G01 Z-2.0000
G01 Z0
G00 Z2.0000
G00 X46.7000 Y-24.0100
G01 Z-2.0000
G01 Z0
G00 Z2.0000
G00 X52.4150 Y-24.6450
G01 Z-2.0000
G01 Z0
G00 Z2.0000
G00 X52.4150 Y-22.1050
G01 Z-2.0000
G01 Z0
G00 Z2.0000
G00 X52.4150 Y-19.5650
G01 Z-2.0000
G01 Z0
G00 Z2.0000
G00 X52.4150 Y-17.0250
G01 Z-2.0000
G01 Z0
G00 Z2.0000
G00 X52.4150 Y-14.4850
G01 Z-2.0000
G01 Z0
G00 Z2.0000
G00 X55.5900 Y-10.6750
G01 Z-2.0000
G01 Z0
G00 Z2.0000
G00 X57.4950 Y-8.1350
G01 Z-2.0000
G01 Z0
G00 Z2.0000
G00 X55.5900 Y-6.2300
G01 Z-2.0000
G01 Z0
G00 Z2.0000
G00 X55.5900 Y-4.3250
G01 Z-2.0000
G01 Z0
G00 Z2.0000
G00 X54.3200 Y-2.4200
G01 Z-2.0000
G01 Z0
G00 Z2.0000
G00 X54.3200 Y-0.5150
G01 Z-2.0000
G01 Z0
G00 Z2.0000
G00 X71.4650 Y-8.1350
G01 Z-2.0000
G01 Z0
G00 Z2.0000
G00 X75.2750 Y-6.8650
G01 Z-2.0000
G01 Z0
G00 Z2.0000
G00 X75.2750 Y-4.3250
G01 Z-2.0000
G01 Z0
G00 Z2.0000
G00 X69.5600 Y-11.9450
G01 Z-2.0000
G01 Z0
G00 Z2.0000
G00 X73.3700 Y-17.0250
G01 Z-2.0000
G01 Z0
G00 Z2.0000
G00 X75.2750 Y-18.9300
G01 Z-2.0000
G01 Z0
G00 Z2.0000
G00 X77.1800 Y-20.8350
G01 Z-2.0000
G01 Z0
G00 Z2.0000
G00 X82.2600 Y-13.2150
G01 Z-2.0000
G01 Z0
G00 Z2.0000
G00 X89.8800 Y-15.1200
G01 Z-2.0000
G01 Z0
G00 Z2.0000
G00 X98.7700 Y-8.7700
G01 Z-2.0000
G01 Z0
G00 Z2.0000
G00 X100.6750 Y-2.4200
G01 Z-2.0000
G01 Z0
G00 Z2.0000
G00 X38.4450 Y-15.7550
G01 Z-2.0000
G01 Z0
G00 Z2.0000
G00 X38.4450 Y-18.2950
G01 Z-2.0000
G01 Z0
G00 Z2.0000
G00 X38.4450 Y-20.8350
G01 Z-2.0000
G01 Z0
G00 Z2.0000
G00 X36.5400 Y-12.5800
G01 Z-2.0000
G01 Z0
G00 Z2.0000
G00 X31.4600 Y-13.8500
G01 Z-2.0000
G01 Z0
G00 Z2.0000
G00 X20.6650 Y-9.4050
G01 Z-2.0000
G01 Z0
G00 Z2.0000
G00 X11.7750 Y-10.6750
G01 Z-2.0000
G01 Z0
G00 Z2.0000
G00 X8.6000 Y-13.2150
G01 Z-2.0000
G01 Z0
G00 Z2.0000
G00 X8.6000 Y-15.7550
G01 Z-2.0000
G01 Z0
G00 Z2.0000
G00 X8.6000 Y-18.2950
G01 Z-2.0000
G01 Z0
G00 Z2.0000
G00 X8.6000 Y-23.3750
G01 Z-2.0000
G01 Z0
G00 Z2.0000
G00 X8.6000 Y-25.9150
G01 Z-2.0000
G01 Z0
G00 Z2.0000
G00 X16.2200 Y-36.0750
G01 Z-2.0000
G01 Z0
G00 Z2.0000
G00 X19.3950 Y-36.0750
G01 Z-2.0000
G01 Z0
G00 Z2.0000
G00 X21.9350 Y-36.0750
G01 Z-2.0000
G01 Z0
G00 Z2.0000
G00 X23.8400 Y-34.1700
G01 Z-2.0000
G01 Z0
G00 Z2.0000
G00 X31.4600 Y-30.9950
G01 Z-2.0000
G01 Z0
G00 Z2.0000
G00 X32.0950 Y-28.4550
G01 Z-2.0000
G01 Z0
G00 Z2.0000
G00 X33.3650 Y-32.9000
G01 Z-2.0000
G01 Z0
G00 Z2.0000
G00 X35.9050 Y-36.7100
G01 Z-2.0000
G01 Z0
G00 Z2.0000
G00 X38.4450 Y-30.9950
G01 Z-2.0000
G01 Z0
G00 Z2.0000
G00 X45.4300 Y-42.4250
G01 Z-2.0000
G01 Z0
G00 Z2.0000
G00 X37.1750 Y-69.7300
G01 Z-2.0000
G01 Z0
G00 Z2.0000
G00 X38.4450 Y-76.0800
G01 Z-2.0000
G01 Z0
G00 Z2.0000
G00 X37.1750 Y-79.8900
G01 Z-2.0000
G01 Z0
G00 Z2.0000
G00 X42.2550 Y-79.2550
G01 Z-2.0000
G01 Z0
G00 Z2.0000
G00 X27.6500 Y-79.8900
G01 Z-2.0000
G01 Z0
G00 Z2.0000
G00 X27.3320 Y-75.7620
G01 Z-2.0000
G01 Z0
G00 Z2.0000
G00 X27.4120 Y-69.9680
G01 Z-2.0000
G01 Z0
G00 Z2.0000
G00 X21.3000 Y-62.1100
G01 Z-2.0000
G01 Z0
G00 Z2.0000
G00 X14.9500 Y-70.3650
G01 Z-2.0000
G01 Z0
G00 Z2.0000
G00 X7.9650 Y-71.6350
G01 Z-2.0000
G01 Z0
G00 Z2.0000
G00 X6.6950 Y-64.6500
G01 Z-2.0000
G01 Z0
G00 Z2.0000
G00 X3.5200 Y-61.4750
G01 Z-2.0000
G01 Z0
G00 Z2.0000
G00 X6.6950 Y-58.3000
G01 Z-2.0000
G01 Z0
G00 Z2.0000
G00 X8.6000 Y-55.1250
G01 Z-2.0000
G01 Z0
G00 Z2.0000
G00 X7.3300 Y-79.8900
G01 Z-2.0000
G01 Z0
G00 Z2.0000
G00 X67.6550 Y-64.0150
G01 Z-2.0000
G01 Z0
G00 Z2.0000
G00 X91.7850 Y-84.9700
G01 Z-2.0000
G01 Z0
G00 Z2.0000
G00 X103.2150 Y-74.1750
G01 Z-2.0000
G01 Z0
G00 Z2.0000
G00 X105.7550 Y-74.1750
G01 Z-2.0000
G01 Z0
G00 Z2.0000
M05
G00 Z10.00


